( pcb2gcode 1.1.4 )

G94     ( Inches per minute feed rate. )
G20     ( Units == INCHES.             )
G90     ( Absolute coordinates.        )
S2500  ( RPM spindle speed.           )
M3      ( Spindle on clockwise.        )

G64 P0.00500 ( set maximum deviation from commanded toolpath )

G04 P0 ( dwell for no time -- G64 should not smooth over this point )
G00 Z0.02000 ( retract )

G00 X0.74700 Y-0.06600 ( rapid move to begin. )
G01 Z-0.00300 F4.75000 ( plunge. )
G04 P0 ( dwell for no time -- G64 should not smooth over this point )
X0.74700 Y-0.06600
X0.74700 Y-0.14100
X0.68400 Y-0.14100
X0.68400 Y-0.14200
X0.68300 Y-0.14200
X0.68300 Y-0.14300
X0.68200 Y-0.14300
X0.68200 Y-0.14400
X0.68100 Y-0.14400
X0.68100 Y-0.14500
X0.68000 Y-0.14500
X0.68000 Y-0.14600
X0.67900 Y-0.14600
X0.67900 Y-0.14700
X0.67800 Y-0.14700
X0.67800 Y-0.14800
X0.67700 Y-0.14800
X0.67700 Y-0.14900
X0.67600 Y-0.14900
X0.67600 Y-0.15000
X0.67500 Y-0.15000
X0.67500 Y-0.15100
X0.67400 Y-0.15100
X0.67400 Y-0.15200
X0.67300 Y-0.15200
X0.67300 Y-0.15300
X0.67200 Y-0.15300
X0.67200 Y-0.15400
X0.67100 Y-0.15400
X0.67100 Y-0.15500
X0.67000 Y-0.15500
X0.67000 Y-0.15600
X0.66900 Y-0.15600
X0.66900 Y-0.15700
X0.66800 Y-0.15700
X0.66800 Y-0.15800
X0.66700 Y-0.15800
X0.66700 Y-0.15900
X0.66600 Y-0.15900
X0.66600 Y-0.16000
X0.66500 Y-0.16000
X0.66500 Y-0.16100
X0.66400 Y-0.16100
X0.66400 Y-0.16200
X0.66300 Y-0.16200
X0.66300 Y-0.16300
X0.66200 Y-0.16300
X0.66200 Y-0.16400
X0.66100 Y-0.16400
X0.66100 Y-0.16500
X0.66000 Y-0.16500
X0.66000 Y-0.16600
X0.65900 Y-0.16600
X0.65900 Y-0.16700
X0.65800 Y-0.16700
X0.65800 Y-0.16800
X0.65700 Y-0.16800
X0.65700 Y-0.16900
X0.65600 Y-0.16900
X0.65600 Y-0.17000
X0.65500 Y-0.17000
X0.65500 Y-0.17100
X0.65400 Y-0.17100
X0.65400 Y-0.17200
X0.65300 Y-0.17200
X0.65300 Y-0.17300
X0.65200 Y-0.17300
X0.65200 Y-0.17400
X0.65100 Y-0.17400
X0.65100 Y-0.17500
X0.65000 Y-0.17500
X0.65000 Y-0.17600
X0.64900 Y-0.17600
X0.64900 Y-0.17700
X0.64800 Y-0.17700
X0.64800 Y-0.17800
X0.64700 Y-0.17800
X0.64700 Y-0.17900
X0.64600 Y-0.17900
X0.64600 Y-0.18000
X0.64500 Y-0.18000
X0.64500 Y-0.18100
X0.64400 Y-0.18100
X0.64400 Y-0.18200
X0.64300 Y-0.18200
X0.64300 Y-0.18300
X0.64200 Y-0.18300
X0.64200 Y-0.18400
X0.64100 Y-0.18400
X0.64100 Y-0.18500
X0.64000 Y-0.18500
X0.64000 Y-0.18600
X0.63900 Y-0.18600
X0.63900 Y-0.18700
X0.63800 Y-0.18700
X0.63800 Y-0.18800
X0.63700 Y-0.18800
X0.63700 Y-0.18900
X0.63600 Y-0.18900
X0.63600 Y-0.19000
X0.63500 Y-0.19000
X0.63500 Y-0.19100
X0.63400 Y-0.19100
X0.63400 Y-0.19200
X0.63300 Y-0.19200
X0.63300 Y-0.19300
X0.63200 Y-0.19300
X0.63200 Y-0.19400
X0.63100 Y-0.19400
X0.63100 Y-0.19500
X0.63000 Y-0.19500
X0.63000 Y-0.19600
X0.62900 Y-0.19600
X0.62900 Y-0.19700
X0.62800 Y-0.19700
X0.62800 Y-0.19800
X0.62700 Y-0.19800
X0.62700 Y-0.19900
X0.62600 Y-0.19900
X0.62600 Y-0.20000
X0.62500 Y-0.20000
X0.62500 Y-0.20100
X0.62400 Y-0.20100
X0.62400 Y-0.20200
X0.62300 Y-0.20200
X0.62300 Y-0.20300
X0.62200 Y-0.20300
X0.62200 Y-0.20400
X0.62100 Y-0.20400
X0.62100 Y-0.20500
X0.62000 Y-0.20500
X0.62000 Y-0.20600
X0.61900 Y-0.20600
X0.61900 Y-0.20700
X0.61800 Y-0.20700
X0.61800 Y-0.20800
X0.61700 Y-0.20800
X0.61700 Y-0.20900
X0.61600 Y-0.20900
X0.61600 Y-0.21000
X0.61500 Y-0.21000
X0.61500 Y-0.21100
X0.61400 Y-0.21100
X0.61400 Y-0.21200
X0.61300 Y-0.21200
X0.61300 Y-0.21300
X0.61200 Y-0.21300
X0.61200 Y-0.21400
X0.61100 Y-0.21400
X0.61100 Y-0.21500
X0.61000 Y-0.21500
X0.61000 Y-0.21600
X0.60900 Y-0.21600
X0.60900 Y-0.21700
X0.60800 Y-0.21700
X0.60800 Y-0.21800
X0.60700 Y-0.21800
X0.60700 Y-0.21900
X0.60600 Y-0.21900
X0.60600 Y-0.22000
X0.60500 Y-0.22000
X0.60500 Y-0.22100
X0.60400 Y-0.22100
X0.60400 Y-0.22200
X0.60300 Y-0.22200
X0.60300 Y-0.22300
X0.60200 Y-0.22300
X0.60200 Y-0.22400
X0.60100 Y-0.22400
X0.60100 Y-0.22500
X0.60000 Y-0.22500
X0.60000 Y-0.22600
X0.59900 Y-0.22600
X0.59900 Y-0.22700
X0.59800 Y-0.22700
X0.59800 Y-0.22800
X0.59700 Y-0.22800
X0.59700 Y-0.22900
X0.59600 Y-0.22900
X0.59600 Y-0.23000
X0.59500 Y-0.23000
X0.59500 Y-0.23100
X0.59400 Y-0.23100
X0.59400 Y-0.23200
X0.59300 Y-0.23200
X0.59300 Y-0.23300
X0.59200 Y-0.23300
X0.59200 Y-0.23400
X0.59100 Y-0.23400
X0.59100 Y-0.23500
X0.59000 Y-0.23500
X0.59000 Y-0.23600
X0.58900 Y-0.23600
X0.58900 Y-0.23700
X0.58800 Y-0.23700
X0.58800 Y-0.23800
X0.58700 Y-0.23800
X0.58700 Y-0.23900
X0.58600 Y-0.23900
X0.58600 Y-0.24000
X0.58500 Y-0.24000
X0.58500 Y-0.24100
X0.58400 Y-0.24100
X0.58400 Y-0.24200
X0.58300 Y-0.24200
X0.58300 Y-0.24300
X0.58200 Y-0.24300
X0.58200 Y-0.24400
X0.58100 Y-0.24400
X0.58100 Y-0.24500
X0.58000 Y-0.24500
X0.58000 Y-0.24600
X0.57900 Y-0.24600
X0.57900 Y-0.24700
X0.57800 Y-0.24700
X0.57800 Y-0.24800
X0.57700 Y-0.24800
X0.57700 Y-0.24900
X0.57600 Y-0.24900
X0.57600 Y-0.25000
X0.57500 Y-0.25000
X0.57500 Y-0.25100
X0.57400 Y-0.25100
X0.57400 Y-0.25200
X0.57300 Y-0.25200
X0.57300 Y-0.25300
X0.57200 Y-0.25300
X0.57200 Y-0.25400
X0.57100 Y-0.25400
X0.57100 Y-0.25500
X0.57000 Y-0.25500
X0.57000 Y-0.25600
X0.56900 Y-0.25600
X0.56900 Y-0.25700
X0.56800 Y-0.25700
X0.56800 Y-0.25800
X0.56700 Y-0.25800
X0.56700 Y-0.25900
X0.56600 Y-0.25900
X0.56600 Y-0.26000
X0.56500 Y-0.26000
X0.56500 Y-0.26100
X0.56400 Y-0.26100
X0.56400 Y-0.26200
X0.56300 Y-0.26200
X0.56300 Y-0.26300
X0.56200 Y-0.26300
X0.56200 Y-0.26400
X0.56100 Y-0.26400
X0.56100 Y-0.26500
X0.56000 Y-0.26500
X0.56000 Y-0.26600
X0.55900 Y-0.26600
X0.55900 Y-0.26700
X0.55800 Y-0.26700
X0.55800 Y-0.26800
X0.55700 Y-0.26800
X0.55700 Y-0.26900
X0.55600 Y-0.26900
X0.55600 Y-0.27000
X0.55500 Y-0.27000
X0.55500 Y-0.27100
X0.55400 Y-0.27100
X0.55400 Y-0.27200
X0.55300 Y-0.27200
X0.55300 Y-0.27300
X0.55200 Y-0.27300
X0.55200 Y-0.27400
X0.55100 Y-0.27400
X0.55100 Y-0.27500
X0.55000 Y-0.27500
X0.55000 Y-0.27600
X0.54900 Y-0.27600
X0.54900 Y-0.27700
X0.54800 Y-0.27700
X0.54800 Y-0.27800
X0.54700 Y-0.27800
X0.54700 Y-0.27900
X0.54600 Y-0.27900
X0.54600 Y-0.28000
X0.54500 Y-0.28000
X0.54500 Y-0.28100
X0.54400 Y-0.28100
X0.54400 Y-0.28200
X0.54300 Y-0.28200
X0.54300 Y-0.28300
X0.54200 Y-0.28300
X0.54200 Y-0.28400
X0.54100 Y-0.28400
X0.54100 Y-0.28500
X0.54000 Y-0.28500
X0.54000 Y-0.28600
X0.53900 Y-0.28600
X0.53900 Y-0.28700
X0.53800 Y-0.28700
X0.53800 Y-0.28800
X0.53700 Y-0.28800
X0.53700 Y-0.28900
X0.53600 Y-0.28900
X0.53600 Y-0.29000
X0.53500 Y-0.29000
X0.53500 Y-0.29100
X0.53400 Y-0.29100
X0.53400 Y-0.29200
X0.53300 Y-0.29200
X0.53300 Y-0.29300
X0.53200 Y-0.29300
X0.53200 Y-0.29400
X0.53100 Y-0.29400
X0.53100 Y-0.29500
X0.53000 Y-0.29500
X0.53000 Y-0.29600
X0.52900 Y-0.29600
X0.52900 Y-0.29700
X0.52800 Y-0.29700
X0.52800 Y-0.29800
X0.52700 Y-0.29800
X0.52700 Y-0.29900
X0.52600 Y-0.29900
X0.52600 Y-0.30000
X0.52500 Y-0.30000
X0.52500 Y-0.30100
X0.52400 Y-0.30100
X0.52400 Y-0.30200
X0.52300 Y-0.30200
X0.52300 Y-0.30300
X0.52200 Y-0.30300
X0.52200 Y-0.30400
X0.52100 Y-0.30400
X0.52100 Y-0.30500
X0.52000 Y-0.30500
X0.52000 Y-0.30600
X0.51900 Y-0.30600
X0.51900 Y-0.30700
X0.51800 Y-0.30700
X0.51800 Y-0.30800
X0.51700 Y-0.30800
X0.51700 Y-0.30900
X0.51600 Y-0.30900
X0.51600 Y-0.31000
X0.51500 Y-0.31000
X0.51500 Y-0.31100
X0.51400 Y-0.31100
X0.51400 Y-0.31200
X0.51300 Y-0.31200
X0.51300 Y-0.31300
X0.51200 Y-0.31300
X0.51200 Y-0.31400
X0.51000 Y-0.31400
X0.51000 Y-0.31500
X0.45200 Y-0.31500
X0.45200 Y-0.32100
X0.40500 Y-0.32100
X0.40500 Y-0.32800
X0.45200 Y-0.32800
X0.45200 Y-0.37100
X0.32700 Y-0.37100
X0.32700 Y-0.32800
X0.37500 Y-0.32800
X0.37500 Y-0.32100
X0.32700 Y-0.32100
X0.32700 Y-0.27800
X0.45200 Y-0.27800
X0.45200 Y-0.28500
X0.49000 Y-0.28500
X0.49000 Y-0.28400
X0.49100 Y-0.28400
X0.49100 Y-0.28300
X0.49200 Y-0.28300
X0.49200 Y-0.28200
X0.49300 Y-0.28200
X0.49300 Y-0.28100
X0.49400 Y-0.28100
X0.49400 Y-0.28000
X0.49500 Y-0.28000
X0.49500 Y-0.27900
X0.49600 Y-0.27900
X0.49600 Y-0.27800
X0.49700 Y-0.27800
X0.49700 Y-0.27700
X0.49800 Y-0.27700
X0.49800 Y-0.27600
X0.49900 Y-0.27600
X0.49900 Y-0.27500
X0.50000 Y-0.27500
X0.50000 Y-0.27400
X0.50100 Y-0.27400
X0.50100 Y-0.27300
X0.50200 Y-0.27300
X0.50200 Y-0.27200
X0.50300 Y-0.27200
X0.50300 Y-0.27100
X0.50400 Y-0.27100
X0.50400 Y-0.27000
X0.50500 Y-0.27000
X0.50500 Y-0.26900
X0.50600 Y-0.26900
X0.50600 Y-0.26800
X0.50700 Y-0.26800
X0.50700 Y-0.26700
X0.50800 Y-0.26700
X0.50800 Y-0.26600
X0.50900 Y-0.26600
X0.50900 Y-0.26500
X0.51000 Y-0.26500
X0.51000 Y-0.26400
X0.51100 Y-0.26400
X0.51100 Y-0.26300
X0.51200 Y-0.26300
X0.51200 Y-0.26200
X0.51300 Y-0.26200
X0.51300 Y-0.26100
X0.51400 Y-0.26100
X0.51400 Y-0.26000
X0.51500 Y-0.26000
X0.51500 Y-0.25900
X0.51600 Y-0.25900
X0.51600 Y-0.25800
X0.51700 Y-0.25800
X0.51700 Y-0.25700
X0.51800 Y-0.25700
X0.51800 Y-0.25600
X0.51900 Y-0.25600
X0.51900 Y-0.25500
X0.52000 Y-0.25500
X0.52000 Y-0.25400
X0.52100 Y-0.25400
X0.52100 Y-0.25300
X0.52200 Y-0.25300
X0.52200 Y-0.25200
X0.52300 Y-0.25200
X0.52300 Y-0.25100
X0.52400 Y-0.25100
X0.52400 Y-0.25000
X0.52500 Y-0.25000
X0.52500 Y-0.24900
X0.52600 Y-0.24900
X0.52600 Y-0.24800
X0.52700 Y-0.24800
X0.52700 Y-0.24700
X0.52800 Y-0.24700
X0.52800 Y-0.24600
X0.52900 Y-0.24600
X0.52900 Y-0.24500
X0.53000 Y-0.24500
X0.53000 Y-0.24400
X0.53100 Y-0.24400
X0.53100 Y-0.24300
X0.53200 Y-0.24300
X0.53200 Y-0.24200
X0.53300 Y-0.24200
X0.53300 Y-0.24100
X0.53400 Y-0.24100
X0.53400 Y-0.24000
X0.53500 Y-0.24000
X0.53500 Y-0.23900
X0.53600 Y-0.23900
X0.53600 Y-0.23800
X0.53700 Y-0.23800
X0.53700 Y-0.23700
X0.53800 Y-0.23700
X0.53800 Y-0.23600
X0.53900 Y-0.23600
X0.53900 Y-0.23500
X0.54000 Y-0.23500
X0.54000 Y-0.23400
X0.54100 Y-0.23400
X0.54100 Y-0.23300
X0.54200 Y-0.23300
X0.54200 Y-0.23200
X0.54300 Y-0.23200
X0.54300 Y-0.23100
X0.54400 Y-0.23100
X0.54400 Y-0.23000
X0.54500 Y-0.23000
X0.54500 Y-0.22900
X0.54600 Y-0.22900
X0.54600 Y-0.22800
X0.54700 Y-0.22800
X0.54700 Y-0.22700
X0.54800 Y-0.22700
X0.54800 Y-0.22600
X0.54900 Y-0.22600
X0.54900 Y-0.22500
X0.55000 Y-0.22500
X0.55000 Y-0.22400
X0.55100 Y-0.22400
X0.55100 Y-0.22300
X0.55200 Y-0.22300
X0.55200 Y-0.22200
X0.55300 Y-0.22200
X0.55300 Y-0.22100
X0.55400 Y-0.22100
X0.55400 Y-0.22000
X0.55500 Y-0.22000
X0.55500 Y-0.21900
X0.55600 Y-0.21900
X0.55600 Y-0.21800
X0.55700 Y-0.21800
X0.55700 Y-0.21700
X0.55800 Y-0.21700
X0.55800 Y-0.21600
X0.55900 Y-0.21600
X0.55900 Y-0.21500
X0.56000 Y-0.21500
X0.56000 Y-0.21400
X0.56100 Y-0.21400
X0.56100 Y-0.21300
X0.56200 Y-0.21300
X0.56200 Y-0.21200
X0.56300 Y-0.21200
X0.56300 Y-0.21100
X0.56400 Y-0.21100
X0.56400 Y-0.21000
X0.56500 Y-0.21000
X0.56500 Y-0.20900
X0.56600 Y-0.20900
X0.56600 Y-0.20800
X0.56700 Y-0.20800
X0.56700 Y-0.20700
X0.56800 Y-0.20700
X0.56800 Y-0.20600
X0.56900 Y-0.20600
X0.56900 Y-0.20500
X0.57000 Y-0.20500
X0.57000 Y-0.20400
X0.57100 Y-0.20400
X0.57100 Y-0.20300
X0.57200 Y-0.20300
X0.57200 Y-0.20200
X0.57300 Y-0.20200
X0.57300 Y-0.20100
X0.57400 Y-0.20100
X0.57400 Y-0.20000
X0.57500 Y-0.20000
X0.57500 Y-0.19900
X0.57600 Y-0.19900
X0.57600 Y-0.19800
X0.57700 Y-0.19800
X0.57700 Y-0.19700
X0.57800 Y-0.19700
X0.57800 Y-0.19600
X0.57900 Y-0.19600
X0.57900 Y-0.19500
X0.58000 Y-0.19500
X0.58000 Y-0.19400
X0.58100 Y-0.19400
X0.58100 Y-0.19300
X0.58200 Y-0.19300
X0.58200 Y-0.19200
X0.58300 Y-0.19200
X0.58300 Y-0.19100
X0.58400 Y-0.19100
X0.58400 Y-0.19000
X0.58500 Y-0.19000
X0.58500 Y-0.18900
X0.58600 Y-0.18900
X0.58600 Y-0.18800
X0.58700 Y-0.18800
X0.58700 Y-0.18700
X0.58800 Y-0.18700
X0.58800 Y-0.18600
X0.58900 Y-0.18600
X0.58900 Y-0.18500
X0.59000 Y-0.18500
X0.59000 Y-0.18400
X0.59100 Y-0.18400
X0.59100 Y-0.18300
X0.59200 Y-0.18300
X0.59200 Y-0.18200
X0.59300 Y-0.18200
X0.59300 Y-0.18100
X0.59400 Y-0.18100
X0.59400 Y-0.18000
X0.59500 Y-0.18000
X0.59500 Y-0.17900
X0.59600 Y-0.17900
X0.59600 Y-0.17800
X0.59700 Y-0.17800
X0.59700 Y-0.17700
X0.59800 Y-0.17700
X0.59800 Y-0.17600
X0.59900 Y-0.17600
X0.59900 Y-0.17500
X0.60000 Y-0.17500
X0.60000 Y-0.17400
X0.60100 Y-0.17400
X0.60100 Y-0.17300
X0.60200 Y-0.17300
X0.60200 Y-0.17200
X0.60300 Y-0.17200
X0.60300 Y-0.17100
X0.60400 Y-0.17100
X0.60400 Y-0.17000
X0.60500 Y-0.17000
X0.60500 Y-0.16900
X0.60600 Y-0.16900
X0.60600 Y-0.16800
X0.60700 Y-0.16800
X0.60700 Y-0.16700
X0.60800 Y-0.16700
X0.60800 Y-0.16600
X0.60900 Y-0.16600
X0.60900 Y-0.16500
X0.61000 Y-0.16500
X0.61000 Y-0.16400
X0.61100 Y-0.16400
X0.61100 Y-0.16300
X0.61200 Y-0.16300
X0.61200 Y-0.16200
X0.61300 Y-0.16200
X0.61300 Y-0.16100
X0.61400 Y-0.16100
X0.61400 Y-0.16000
X0.61500 Y-0.16000
X0.61500 Y-0.15900
X0.61600 Y-0.15900
X0.61600 Y-0.15800
X0.61700 Y-0.15800
X0.61700 Y-0.15700
X0.61800 Y-0.15700
X0.61800 Y-0.15600
X0.61900 Y-0.15600
X0.61900 Y-0.15500
X0.62000 Y-0.15500
X0.62000 Y-0.15400
X0.62100 Y-0.15400
X0.62100 Y-0.15300
X0.62200 Y-0.15300
X0.62200 Y-0.15200
X0.62300 Y-0.15200
X0.62300 Y-0.15100
X0.62400 Y-0.15100
X0.62400 Y-0.15000
X0.62500 Y-0.15000
X0.62500 Y-0.14900
X0.62600 Y-0.14900
X0.62600 Y-0.14800
X0.62700 Y-0.14800
X0.62700 Y-0.14700
X0.62800 Y-0.14700
X0.62800 Y-0.14600
X0.62900 Y-0.14600
X0.62900 Y-0.14500
X0.63000 Y-0.14500
X0.63000 Y-0.14400
X0.63100 Y-0.14400
X0.63100 Y-0.14300
X0.63200 Y-0.14300
X0.63200 Y-0.14200
X0.63300 Y-0.14200
X0.63300 Y-0.14100
X0.63400 Y-0.14100
X0.63400 Y-0.14000
X0.63500 Y-0.14000
X0.63500 Y-0.13900
X0.63600 Y-0.13900
X0.63600 Y-0.13800
X0.63700 Y-0.13800
X0.63700 Y-0.13700
X0.63800 Y-0.13700
X0.63800 Y-0.13600
X0.63900 Y-0.13600
X0.63900 Y-0.13500
X0.64000 Y-0.13500
X0.64000 Y-0.13400
X0.64100 Y-0.13400
X0.64100 Y-0.13300
X0.64200 Y-0.13300
X0.64200 Y-0.13200
X0.64300 Y-0.13200
X0.64300 Y-0.13100
X0.64400 Y-0.13100
X0.64400 Y-0.13000
X0.64500 Y-0.13000
X0.64500 Y-0.12900
X0.64600 Y-0.12900
X0.64600 Y-0.12800
X0.64700 Y-0.12800
X0.64700 Y-0.12700
X0.64800 Y-0.12700
X0.64800 Y-0.12600
X0.64900 Y-0.12600
X0.64900 Y-0.12500
X0.65000 Y-0.12500
X0.65000 Y-0.12400
X0.65100 Y-0.12400
X0.65100 Y-0.12300
X0.65200 Y-0.12300
X0.65200 Y-0.05800
X0.74700 Y-0.05800
X0.74700 Y-0.06600
G04 P0 ( dwell for no time -- G64 should not smooth over this point )
G00 Z0.02000 ( retract )

G00 X0.73400 Y-0.16600 ( rapid move to begin. )
G01 Z-0.00300 F4.75000 ( plunge. )
G04 P0 ( dwell for no time -- G64 should not smooth over this point )
X0.73400 Y-0.16600
X0.73600 Y-0.16600
X0.73600 Y-0.16700
X0.73700 Y-0.16700
X0.73700 Y-0.16800
X0.73800 Y-0.16800
X0.73800 Y-0.16900
X0.73900 Y-0.16900
X0.73900 Y-0.17000
X0.74000 Y-0.17000
X0.74000 Y-0.17200
X0.74100 Y-0.17200
X0.74100 Y-0.17400
X0.74200 Y-0.17400
X0.74200 Y-0.17500
X0.74300 Y-0.17500
X0.74300 Y-0.17700
X0.74400 Y-0.17700
X0.74400 Y-0.17900
X0.74500 Y-0.17900
X0.74500 Y-0.18300
X0.74600 Y-0.18300
X0.74600 Y-0.18900
X0.74700 Y-0.18900
X0.74700 Y-0.21000
X0.74600 Y-0.21000
X0.74600 Y-0.21600
X0.74500 Y-0.21600
X0.74500 Y-0.22000
X0.74400 Y-0.22000
X0.74400 Y-0.22200
X0.74300 Y-0.22200
X0.74300 Y-0.22400
X0.74200 Y-0.22400
X0.74200 Y-0.22500
X0.74100 Y-0.22500
X0.74100 Y-0.22700
X0.74000 Y-0.22700
X0.74000 Y-0.22900
X0.73900 Y-0.22900
X0.73900 Y-0.23000
X0.73800 Y-0.23000
X0.73800 Y-0.23100
X0.73700 Y-0.23100
X0.73700 Y-0.23200
X0.73600 Y-0.23200
X0.73600 Y-0.23300
X0.73400 Y-0.23300
X0.73400 Y-0.23400
X0.73300 Y-0.23400
X0.73300 Y-0.23500
X0.73100 Y-0.23500
X0.73100 Y-0.23600
X0.73000 Y-0.23600
X0.73000 Y-0.23700
X0.72900 Y-0.23700
X0.72900 Y-0.23800
X0.72700 Y-0.23800
X0.72700 Y-0.23900
X0.72300 Y-0.23900
X0.72300 Y-0.24000
X0.71800 Y-0.24000
X0.71800 Y-0.24100
X0.68100 Y-0.24100
X0.68100 Y-0.24000
X0.67600 Y-0.24000
X0.67600 Y-0.23900
X0.67200 Y-0.23900
X0.67200 Y-0.23800
X0.67000 Y-0.23800
X0.67000 Y-0.23700
X0.66900 Y-0.23700
X0.66900 Y-0.23600
X0.66800 Y-0.23600
X0.66800 Y-0.23500
X0.66600 Y-0.23500
X0.66600 Y-0.23400
X0.66500 Y-0.23400
X0.66500 Y-0.23300
X0.66300 Y-0.23300
X0.66300 Y-0.23200
X0.66200 Y-0.23200
X0.66200 Y-0.23100
X0.66100 Y-0.23100
X0.66100 Y-0.23000
X0.66000 Y-0.23000
X0.66000 Y-0.22900
X0.65900 Y-0.22900
X0.65900 Y-0.22700
X0.65800 Y-0.22700
X0.65800 Y-0.22500
X0.65700 Y-0.22500
X0.65700 Y-0.22400
X0.65600 Y-0.22400
X0.65600 Y-0.22200
X0.65500 Y-0.22200
X0.65500 Y-0.22000
X0.65400 Y-0.22000
X0.65400 Y-0.21600
X0.65300 Y-0.21600
X0.65300 Y-0.21000
X0.65200 Y-0.21000
X0.65200 Y-0.18900
X0.65300 Y-0.18900
X0.65300 Y-0.18300
X0.65400 Y-0.18300
X0.65400 Y-0.17900
X0.65500 Y-0.17900
X0.65500 Y-0.17700
X0.65600 Y-0.17700
X0.65600 Y-0.17500
X0.65700 Y-0.17500
X0.65700 Y-0.17400
X0.65800 Y-0.17400
X0.65800 Y-0.17200
X0.65900 Y-0.17200
X0.65900 Y-0.17000
X0.66000 Y-0.17000
X0.66000 Y-0.16900
X0.66100 Y-0.16900
X0.66100 Y-0.16800
X0.66200 Y-0.16800
X0.66200 Y-0.16700
X0.66300 Y-0.16700
X0.66300 Y-0.16600
X0.66500 Y-0.16600
X0.66500 Y-0.16500
X0.66600 Y-0.16500
X0.66600 Y-0.16400
X0.66800 Y-0.16400
X0.66800 Y-0.16300
X0.66900 Y-0.16300
X0.66900 Y-0.16200
X0.67000 Y-0.16200
X0.67000 Y-0.16100
X0.67200 Y-0.16100
X0.67200 Y-0.16000
X0.67600 Y-0.16000
X0.67600 Y-0.15900
X0.68100 Y-0.15900
X0.68100 Y-0.15800
X0.71800 Y-0.15800
X0.71800 Y-0.15900
X0.72300 Y-0.15900
X0.72300 Y-0.16000
X0.72700 Y-0.16000
X0.72700 Y-0.16100
X0.72900 Y-0.16100
X0.72900 Y-0.16200
X0.73000 Y-0.16200
X0.73000 Y-0.16300
X0.73100 Y-0.16300
X0.73100 Y-0.16400
X0.73300 Y-0.16400
X0.73300 Y-0.16500
X0.73400 Y-0.16500
X0.73400 Y-0.16600
G04 P0 ( dwell for no time -- G64 should not smooth over this point )
G00 Z0.02000 ( retract )

G00 X0.29200 Y-0.18600 ( rapid move to begin. )
G01 Z-0.00300 F4.75000 ( plunge. )
G04 P0 ( dwell for no time -- G64 should not smooth over this point )
X0.29200 Y-0.18600
X0.29200 Y-0.22100
X0.16700 Y-0.22100
X0.16700 Y-0.17800
X0.29200 Y-0.17800
X0.29200 Y-0.18600
G04 P0 ( dwell for no time -- G64 should not smooth over this point )
G00 Z0.02000 ( retract )

G00 X0.45200 Y-0.18600 ( rapid move to begin. )
G01 Z-0.00300 F4.75000 ( plunge. )
G04 P0 ( dwell for no time -- G64 should not smooth over this point )
X0.45200 Y-0.18600
X0.45200 Y-0.22100
X0.32700 Y-0.22100
X0.32700 Y-0.17800
X0.45200 Y-0.17800
X0.45200 Y-0.18600
G04 P0 ( dwell for no time -- G64 should not smooth over this point )
G00 Z0.02000 ( retract )

G00 X0.29200 Y-0.23600 ( rapid move to begin. )
G01 Z-0.00300 F4.75000 ( plunge. )
G04 P0 ( dwell for no time -- G64 should not smooth over this point )
X0.29200 Y-0.23600
X0.29200 Y-0.27100
X0.16700 Y-0.27100
X0.16700 Y-0.22800
X0.29200 Y-0.22800
X0.29200 Y-0.23600
G04 P0 ( dwell for no time -- G64 should not smooth over this point )
G00 Z0.02000 ( retract )

G00 X0.73400 Y-0.26600 ( rapid move to begin. )
G01 Z-0.00300 F4.75000 ( plunge. )
G04 P0 ( dwell for no time -- G64 should not smooth over this point )
X0.73400 Y-0.26600
X0.73600 Y-0.26600
X0.73600 Y-0.26700
X0.73700 Y-0.26700
X0.73700 Y-0.26800
X0.73800 Y-0.26800
X0.73800 Y-0.26900
X0.73900 Y-0.26900
X0.73900 Y-0.27000
X0.74000 Y-0.27000
X0.74000 Y-0.27200
X0.74100 Y-0.27200
X0.74100 Y-0.27400
X0.74200 Y-0.27400
X0.74200 Y-0.27500
X0.74300 Y-0.27500
X0.74300 Y-0.27700
X0.74400 Y-0.27700
X0.74400 Y-0.27900
X0.74500 Y-0.27900
X0.74500 Y-0.28300
X0.74600 Y-0.28300
X0.74600 Y-0.28900
X0.74700 Y-0.28900
X0.74700 Y-0.31000
X0.74600 Y-0.31000
X0.74600 Y-0.31600
X0.74500 Y-0.31600
X0.74500 Y-0.32000
X0.74400 Y-0.32000
X0.74400 Y-0.32200
X0.74300 Y-0.32200
X0.74300 Y-0.32400
X0.74200 Y-0.32400
X0.74200 Y-0.32500
X0.74100 Y-0.32500
X0.74100 Y-0.32700
X0.74000 Y-0.32700
X0.74000 Y-0.32900
X0.73900 Y-0.32900
X0.73900 Y-0.33000
X0.73800 Y-0.33000
X0.73800 Y-0.33100
X0.73700 Y-0.33100
X0.73700 Y-0.33200
X0.73600 Y-0.33200
X0.73600 Y-0.33300
X0.73400 Y-0.33300
X0.73400 Y-0.33400
X0.73300 Y-0.33400
X0.73300 Y-0.33500
X0.73100 Y-0.33500
X0.73100 Y-0.33600
X0.73000 Y-0.33600
X0.73000 Y-0.33700
X0.72900 Y-0.33700
X0.72900 Y-0.33800
X0.72700 Y-0.33800
X0.72700 Y-0.33900
X0.72300 Y-0.33900
X0.72300 Y-0.34000
X0.71800 Y-0.34000
X0.71800 Y-0.34100
X0.68100 Y-0.34100
X0.68100 Y-0.34000
X0.67600 Y-0.34000
X0.67600 Y-0.33900
X0.67200 Y-0.33900
X0.67200 Y-0.33800
X0.67000 Y-0.33800
X0.67000 Y-0.33700
X0.66900 Y-0.33700
X0.66900 Y-0.33600
X0.66800 Y-0.33600
X0.66800 Y-0.33500
X0.66600 Y-0.33500
X0.66600 Y-0.33400
X0.66500 Y-0.33400
X0.66500 Y-0.33300
X0.66300 Y-0.33300
X0.66300 Y-0.33200
X0.66200 Y-0.33200
X0.66200 Y-0.33100
X0.66100 Y-0.33100
X0.66100 Y-0.33000
X0.66000 Y-0.33000
X0.66000 Y-0.32900
X0.65900 Y-0.32900
X0.65900 Y-0.32700
X0.65800 Y-0.32700
X0.65800 Y-0.32500
X0.65700 Y-0.32500
X0.65700 Y-0.32400
X0.65600 Y-0.32400
X0.65600 Y-0.32200
X0.65500 Y-0.32200
X0.65500 Y-0.32000
X0.65400 Y-0.32000
X0.65400 Y-0.31600
X0.65300 Y-0.31600
X0.65300 Y-0.31500
X0.65000 Y-0.31500
X0.65000 Y-0.31600
X0.64900 Y-0.31600
X0.64900 Y-0.31700
X0.64800 Y-0.31700
X0.64800 Y-0.31800
X0.64700 Y-0.31800
X0.64700 Y-0.31900
X0.64600 Y-0.31900
X0.64600 Y-0.32000
X0.64500 Y-0.32000
X0.64500 Y-0.32100
X0.64400 Y-0.32100
X0.64400 Y-0.32200
X0.64300 Y-0.32200
X0.64300 Y-0.32300
X0.64200 Y-0.32300
X0.64200 Y-0.32400
X0.64100 Y-0.32400
X0.64100 Y-0.32500
X0.64000 Y-0.32500
X0.64000 Y-0.32600
X0.63900 Y-0.32600
X0.63900 Y-0.32700
X0.63800 Y-0.32700
X0.63800 Y-0.32800
X0.63700 Y-0.32800
X0.63700 Y-0.32900
X0.63600 Y-0.32900
X0.63600 Y-0.33000
X0.63500 Y-0.33000
X0.63500 Y-0.33100
X0.63400 Y-0.33100
X0.63400 Y-0.33200
X0.63300 Y-0.33200
X0.63300 Y-0.33300
X0.63200 Y-0.33300
X0.63200 Y-0.33400
X0.63100 Y-0.33400
X0.63100 Y-0.33500
X0.63000 Y-0.33500
X0.63000 Y-0.33600
X0.62900 Y-0.33600
X0.62900 Y-0.33700
X0.62800 Y-0.33700
X0.62800 Y-0.33800
X0.62700 Y-0.33800
X0.62700 Y-0.33900
X0.62600 Y-0.33900
X0.62600 Y-0.34000
X0.62500 Y-0.34000
X0.62500 Y-0.34100
X0.62400 Y-0.34100
X0.62400 Y-0.34200
X0.62300 Y-0.34200
X0.62300 Y-0.34300
X0.62200 Y-0.34300
X0.62200 Y-0.34400
X0.62100 Y-0.34400
X0.62100 Y-0.34500
X0.62000 Y-0.34500
X0.62000 Y-0.34600
X0.61900 Y-0.34600
X0.61900 Y-0.34700
X0.61800 Y-0.34700
X0.61800 Y-0.34800
X0.61700 Y-0.34800
X0.61700 Y-0.34900
X0.61600 Y-0.34900
X0.61600 Y-0.35000
X0.61500 Y-0.35000
X0.61500 Y-0.35100
X0.61400 Y-0.35100
X0.61400 Y-0.35200
X0.61300 Y-0.35200
X0.61300 Y-0.35300
X0.61200 Y-0.35300
X0.61200 Y-0.35400
X0.61100 Y-0.35400
X0.61100 Y-0.35500
X0.61000 Y-0.35500
X0.61000 Y-0.35600
X0.60900 Y-0.35600
X0.60900 Y-0.35700
X0.60800 Y-0.35700
X0.60800 Y-0.35800
X0.60700 Y-0.35800
X0.60700 Y-0.35900
X0.60600 Y-0.35900
X0.60600 Y-0.36000
X0.60500 Y-0.36000
X0.60500 Y-0.36100
X0.60400 Y-0.36100
X0.60400 Y-0.36200
X0.60300 Y-0.36200
X0.60300 Y-0.36300
X0.60200 Y-0.36300
X0.60200 Y-0.36400
X0.60100 Y-0.36400
X0.60100 Y-0.36500
X0.60000 Y-0.36500
X0.60000 Y-0.36600
X0.59900 Y-0.36600
X0.59900 Y-0.36700
X0.59800 Y-0.36700
X0.59800 Y-0.36800
X0.59700 Y-0.36800
X0.59700 Y-0.36900
X0.59600 Y-0.36900
X0.59600 Y-0.37000
X0.59500 Y-0.37000
X0.59500 Y-0.37100
X0.59400 Y-0.37100
X0.59400 Y-0.37200
X0.59300 Y-0.37200
X0.59300 Y-0.37300
X0.59200 Y-0.37300
X0.59200 Y-0.37400
X0.59100 Y-0.37400
X0.59100 Y-0.37500
X0.59000 Y-0.37500
X0.59000 Y-0.37600
X0.58900 Y-0.37600
X0.58900 Y-0.37700
X0.58800 Y-0.37700
X0.58800 Y-0.37800
X0.58700 Y-0.37800
X0.58700 Y-0.37900
X0.58600 Y-0.37900
X0.58600 Y-0.38000
X0.58500 Y-0.38000
X0.58500 Y-0.38100
X0.58400 Y-0.38100
X0.58400 Y-0.38200
X0.58300 Y-0.38200
X0.58300 Y-0.38300
X0.58200 Y-0.38300
X0.58200 Y-0.38400
X0.58100 Y-0.38400
X0.58100 Y-0.38500
X0.58000 Y-0.38500
X0.58000 Y-0.38600
X0.57900 Y-0.38600
X0.57900 Y-0.38700
X0.57800 Y-0.38700
X0.57800 Y-0.38800
X0.57700 Y-0.38800
X0.57700 Y-0.38900
X0.57600 Y-0.38900
X0.57600 Y-0.39000
X0.57500 Y-0.39000
X0.57500 Y-0.39100
X0.57400 Y-0.39100
X0.57400 Y-0.39200
X0.57300 Y-0.39200
X0.57300 Y-0.39300
X0.57200 Y-0.39300
X0.57200 Y-0.39400
X0.57100 Y-0.39400
X0.57100 Y-0.39500
X0.57000 Y-0.39500
X0.57000 Y-0.39600
X0.56900 Y-0.39600
X0.56900 Y-0.39700
X0.56800 Y-0.39700
X0.56800 Y-0.39800
X0.56700 Y-0.39800
X0.56700 Y-0.39900
X0.56600 Y-0.39900
X0.56600 Y-0.40000
X0.56500 Y-0.40000
X0.56500 Y-0.40100
X0.56400 Y-0.40100
X0.56400 Y-0.40200
X0.56300 Y-0.40200
X0.56300 Y-0.40300
X0.56200 Y-0.40300
X0.56200 Y-0.40400
X0.56100 Y-0.40400
X0.56100 Y-0.40500
X0.56000 Y-0.40500
X0.56000 Y-0.40600
X0.55900 Y-0.40600
X0.55900 Y-0.40700
X0.55800 Y-0.40700
X0.55800 Y-0.40800
X0.55700 Y-0.40800
X0.55700 Y-0.40900
X0.55600 Y-0.40900
X0.55600 Y-0.41000
X0.55500 Y-0.41000
X0.55500 Y-0.41100
X0.55400 Y-0.41100
X0.55400 Y-0.41200
X0.55300 Y-0.41200
X0.55300 Y-0.41300
X0.55200 Y-0.41300
X0.55200 Y-0.41400
X0.55000 Y-0.41400
X0.55000 Y-0.41500
X0.45200 Y-0.41500
X0.45200 Y-0.42100
X0.32700 Y-0.42100
X0.32700 Y-0.37800
X0.45200 Y-0.37800
X0.45200 Y-0.38500
X0.53000 Y-0.38500
X0.53000 Y-0.38400
X0.53100 Y-0.38400
X0.53100 Y-0.38300
X0.53200 Y-0.38300
X0.53200 Y-0.38200
X0.53300 Y-0.38200
X0.53300 Y-0.38100
X0.53400 Y-0.38100
X0.53400 Y-0.38000
X0.53500 Y-0.38000
X0.53500 Y-0.37900
X0.53600 Y-0.37900
X0.53600 Y-0.37800
X0.53700 Y-0.37800
X0.53700 Y-0.37700
X0.53800 Y-0.37700
X0.53800 Y-0.37600
X0.53900 Y-0.37600
X0.53900 Y-0.37500
X0.54000 Y-0.37500
X0.54000 Y-0.37400
X0.54100 Y-0.37400
X0.54100 Y-0.37300
X0.54200 Y-0.37300
X0.54200 Y-0.37200
X0.54300 Y-0.37200
X0.54300 Y-0.37100
X0.54400 Y-0.37100
X0.54400 Y-0.37000
X0.54500 Y-0.37000
X0.54500 Y-0.36900
X0.54600 Y-0.36900
X0.54600 Y-0.36800
X0.54700 Y-0.36800
X0.54700 Y-0.36700
X0.54800 Y-0.36700
X0.54800 Y-0.36600
X0.54900 Y-0.36600
X0.54900 Y-0.36500
X0.55000 Y-0.36500
X0.55000 Y-0.36400
X0.55100 Y-0.36400
X0.55100 Y-0.36300
X0.55200 Y-0.36300
X0.55200 Y-0.36200
X0.55300 Y-0.36200
X0.55300 Y-0.36100
X0.55400 Y-0.36100
X0.55400 Y-0.36000
X0.55500 Y-0.36000
X0.55500 Y-0.35900
X0.55600 Y-0.35900
X0.55600 Y-0.35800
X0.55700 Y-0.35800
X0.55700 Y-0.35700
X0.55800 Y-0.35700
X0.55800 Y-0.35600
X0.55900 Y-0.35600
X0.55900 Y-0.35500
X0.56000 Y-0.35500
X0.56000 Y-0.35400
X0.56100 Y-0.35400
X0.56100 Y-0.35300
X0.56200 Y-0.35300
X0.56200 Y-0.35200
X0.56300 Y-0.35200
X0.56300 Y-0.35100
X0.56400 Y-0.35100
X0.56400 Y-0.35000
X0.56500 Y-0.35000
X0.56500 Y-0.34900
X0.56600 Y-0.34900
X0.56600 Y-0.34800
X0.56700 Y-0.34800
X0.56700 Y-0.34700
X0.56800 Y-0.34700
X0.56800 Y-0.34600
X0.56900 Y-0.34600
X0.56900 Y-0.34500
X0.57000 Y-0.34500
X0.57000 Y-0.34400
X0.57100 Y-0.34400
X0.57100 Y-0.34300
X0.57200 Y-0.34300
X0.57200 Y-0.34200
X0.57300 Y-0.34200
X0.57300 Y-0.34100
X0.57400 Y-0.34100
X0.57400 Y-0.34000
X0.57500 Y-0.34000
X0.57500 Y-0.33900
X0.57600 Y-0.33900
X0.57600 Y-0.33800
X0.57700 Y-0.33800
X0.57700 Y-0.33700
X0.57800 Y-0.33700
X0.57800 Y-0.33600
X0.57900 Y-0.33600
X0.57900 Y-0.33500
X0.58000 Y-0.33500
X0.58000 Y-0.33400
X0.58100 Y-0.33400
X0.58100 Y-0.33300
X0.58200 Y-0.33300
X0.58200 Y-0.33200
X0.58300 Y-0.33200
X0.58300 Y-0.33100
X0.58400 Y-0.33100
X0.58400 Y-0.33000
X0.58500 Y-0.33000
X0.58500 Y-0.32900
X0.58600 Y-0.32900
X0.58600 Y-0.32800
X0.58700 Y-0.32800
X0.58700 Y-0.32700
X0.58800 Y-0.32700
X0.58800 Y-0.32600
X0.58900 Y-0.32600
X0.58900 Y-0.32500
X0.59000 Y-0.32500
X0.59000 Y-0.32400
X0.59100 Y-0.32400
X0.59100 Y-0.32300
X0.59200 Y-0.32300
X0.59200 Y-0.32200
X0.59300 Y-0.32200
X0.59300 Y-0.32100
X0.59400 Y-0.32100
X0.59400 Y-0.32000
X0.59500 Y-0.32000
X0.59500 Y-0.31900
X0.59600 Y-0.31900
X0.59600 Y-0.31800
X0.59700 Y-0.31800
X0.59700 Y-0.31700
X0.59800 Y-0.31700
X0.59800 Y-0.31600
X0.59900 Y-0.31600
X0.59900 Y-0.31500
X0.60000 Y-0.31500
X0.60000 Y-0.31400
X0.60100 Y-0.31400
X0.60100 Y-0.31300
X0.60200 Y-0.31300
X0.60200 Y-0.31200
X0.60300 Y-0.31200
X0.60300 Y-0.31100
X0.60400 Y-0.31100
X0.60400 Y-0.31000
X0.60500 Y-0.31000
X0.60500 Y-0.30900
X0.60600 Y-0.30900
X0.60600 Y-0.30800
X0.60700 Y-0.30800
X0.60700 Y-0.30700
X0.60800 Y-0.30700
X0.60800 Y-0.30600
X0.60900 Y-0.30600
X0.60900 Y-0.30500
X0.61000 Y-0.30500
X0.61000 Y-0.30400
X0.61100 Y-0.30400
X0.61100 Y-0.30300
X0.61200 Y-0.30300
X0.61200 Y-0.30200
X0.61300 Y-0.30200
X0.61300 Y-0.30100
X0.61400 Y-0.30100
X0.61400 Y-0.30000
X0.61500 Y-0.30000
X0.61500 Y-0.29900
X0.61600 Y-0.29900
X0.61600 Y-0.29800
X0.61700 Y-0.29800
X0.61700 Y-0.29700
X0.61800 Y-0.29700
X0.61800 Y-0.29600
X0.61900 Y-0.29600
X0.61900 Y-0.29500
X0.62000 Y-0.29500
X0.62000 Y-0.29400
X0.62100 Y-0.29400
X0.62100 Y-0.29300
X0.62200 Y-0.29300
X0.62200 Y-0.29200
X0.62300 Y-0.29200
X0.62300 Y-0.29100
X0.62400 Y-0.29100
X0.62400 Y-0.29000
X0.62500 Y-0.29000
X0.62500 Y-0.28900
X0.62600 Y-0.28900
X0.62600 Y-0.28800
X0.62700 Y-0.28800
X0.62700 Y-0.28700
X0.62800 Y-0.28700
X0.62800 Y-0.28600
X0.63000 Y-0.28600
X0.63000 Y-0.28500
X0.65300 Y-0.28500
X0.65300 Y-0.28300
X0.65400 Y-0.28300
X0.65400 Y-0.27900
X0.65500 Y-0.27900
X0.65500 Y-0.27700
X0.65600 Y-0.27700
X0.65600 Y-0.27500
X0.65700 Y-0.27500
X0.65700 Y-0.27400
X0.65800 Y-0.27400
X0.65800 Y-0.27200
X0.65900 Y-0.27200
X0.65900 Y-0.27000
X0.66000 Y-0.27000
X0.66000 Y-0.26900
X0.66100 Y-0.26900
X0.66100 Y-0.26800
X0.66200 Y-0.26800
X0.66200 Y-0.26700
X0.66300 Y-0.26700
X0.66300 Y-0.26600
X0.66500 Y-0.26600
X0.66500 Y-0.26500
X0.66600 Y-0.26500
X0.66600 Y-0.26400
X0.66800 Y-0.26400
X0.66800 Y-0.26300
X0.66900 Y-0.26300
X0.66900 Y-0.26200
X0.67000 Y-0.26200
X0.67000 Y-0.26100
X0.67200 Y-0.26100
X0.67200 Y-0.26000
X0.67600 Y-0.26000
X0.67600 Y-0.25900
X0.68100 Y-0.25900
X0.68100 Y-0.25800
X0.71800 Y-0.25800
X0.71800 Y-0.25900
X0.72300 Y-0.25900
X0.72300 Y-0.26000
X0.72700 Y-0.26000
X0.72700 Y-0.26100
X0.72900 Y-0.26100
X0.72900 Y-0.26200
X0.73000 Y-0.26200
X0.73000 Y-0.26300
X0.73100 Y-0.26300
X0.73100 Y-0.26400
X0.73300 Y-0.26400
X0.73300 Y-0.26500
X0.73400 Y-0.26500
X0.73400 Y-0.26600
G04 P0 ( dwell for no time -- G64 should not smooth over this point )
G00 Z0.02000 ( retract )

G00 X0.29200 Y-0.28600 ( rapid move to begin. )
G01 Z-0.00300 F4.75000 ( plunge. )
G04 P0 ( dwell for no time -- G64 should not smooth over this point )
X0.29200 Y-0.28600
X0.29200 Y-0.32100
X0.16700 Y-0.32100
X0.16700 Y-0.27800
X0.29200 Y-0.27800
X0.29200 Y-0.28600
G04 P0 ( dwell for no time -- G64 should not smooth over this point )
G00 Z0.02000 ( retract )

G00 X0.29200 Y-0.33600 ( rapid move to begin. )
G01 Z-0.00300 F4.75000 ( plunge. )
G04 P0 ( dwell for no time -- G64 should not smooth over this point )
X0.29200 Y-0.33600
X0.29200 Y-0.37100
X0.16700 Y-0.37100
X0.16700 Y-0.36500
X0.16000 Y-0.36500
X0.16000 Y-0.36600
X0.15900 Y-0.36600
X0.15900 Y-0.36700
X0.15800 Y-0.36700
X0.15800 Y-0.36800
X0.15700 Y-0.36800
X0.15700 Y-0.36900
X0.15600 Y-0.36900
X0.15600 Y-0.37000
X0.15500 Y-0.37000
X0.15500 Y-0.37100
X0.15400 Y-0.37100
X0.15400 Y-0.37200
X0.15300 Y-0.37200
X0.15300 Y-0.37300
X0.15200 Y-0.37300
X0.15200 Y-0.37400
X0.15100 Y-0.37400
X0.15100 Y-0.37500
X0.15000 Y-0.37500
X0.15000 Y-0.37600
X0.14900 Y-0.37600
X0.14900 Y-0.37700
X0.14800 Y-0.37700
X0.14800 Y-0.37800
X0.14700 Y-0.37800
X0.14700 Y-0.37900
X0.14600 Y-0.37900
X0.14600 Y-0.38000
X0.14500 Y-0.38000
X0.14500 Y-0.43000
X0.14600 Y-0.43000
X0.14600 Y-0.43100
X0.14700 Y-0.43100
X0.14700 Y-0.43200
X0.14800 Y-0.43200
X0.14800 Y-0.43300
X0.14900 Y-0.43300
X0.14900 Y-0.43400
X0.15000 Y-0.43400
X0.15000 Y-0.43500
X0.15100 Y-0.43500
X0.15100 Y-0.43600
X0.15200 Y-0.43600
X0.15200 Y-0.43700
X0.15300 Y-0.43700
X0.15300 Y-0.43800
X0.15400 Y-0.43800
X0.15400 Y-0.43900
X0.15500 Y-0.43900
X0.15500 Y-0.44000
X0.15600 Y-0.44000
X0.15600 Y-0.44100
X0.15700 Y-0.44100
X0.15700 Y-0.44200
X0.15800 Y-0.44200
X0.15800 Y-0.44300
X0.15900 Y-0.44300
X0.15900 Y-0.44400
X0.16000 Y-0.44400
X0.16000 Y-0.44500
X0.16100 Y-0.44500
X0.16100 Y-0.44600
X0.16200 Y-0.44600
X0.16200 Y-0.44700
X0.16300 Y-0.44700
X0.16300 Y-0.44800
X0.16400 Y-0.44800
X0.16400 Y-0.44900
X0.16500 Y-0.44900
X0.16500 Y-0.45000
X0.16600 Y-0.45000
X0.16600 Y-0.45100
X0.16700 Y-0.45100
X0.16700 Y-0.45200
X0.16800 Y-0.45200
X0.16800 Y-0.45300
X0.16900 Y-0.45300
X0.16900 Y-0.45400
X0.17000 Y-0.45400
X0.17000 Y-0.45500
X0.17100 Y-0.45500
X0.17100 Y-0.45600
X0.17200 Y-0.45600
X0.17200 Y-0.45700
X0.17300 Y-0.45700
X0.17300 Y-0.45800
X0.17400 Y-0.45800
X0.17400 Y-0.45900
X0.17500 Y-0.45900
X0.17500 Y-0.46000
X0.17600 Y-0.46000
X0.17600 Y-0.46100
X0.17700 Y-0.46100
X0.17700 Y-0.46200
X0.17800 Y-0.46200
X0.17800 Y-0.46300
X0.17900 Y-0.46300
X0.17900 Y-0.46400
X0.18000 Y-0.46400
X0.18000 Y-0.46500
X0.18100 Y-0.46500
X0.18100 Y-0.46600
X0.18200 Y-0.46600
X0.18200 Y-0.46700
X0.18300 Y-0.46700
X0.18300 Y-0.46800
X0.18400 Y-0.46800
X0.18400 Y-0.46900
X0.18500 Y-0.46900
X0.18500 Y-0.47000
X0.18600 Y-0.47000
X0.18600 Y-0.47100
X0.18700 Y-0.47100
X0.18700 Y-0.47200
X0.18800 Y-0.47200
X0.18800 Y-0.47300
X0.18900 Y-0.47300
X0.18900 Y-0.47400
X0.19000 Y-0.47400
X0.19000 Y-0.47500
X0.19100 Y-0.47500
X0.19100 Y-0.47600
X0.19200 Y-0.47600
X0.19200 Y-0.47700
X0.19300 Y-0.47700
X0.19300 Y-0.47800
X0.19400 Y-0.47800
X0.19400 Y-0.47900
X0.19500 Y-0.47900
X0.19500 Y-0.48000
X0.19600 Y-0.48000
X0.19600 Y-0.48100
X0.19700 Y-0.48100
X0.19700 Y-0.48200
X0.19800 Y-0.48200
X0.19800 Y-0.48300
X0.19900 Y-0.48300
X0.19900 Y-0.48400
X0.20000 Y-0.48400
X0.20000 Y-0.48500
X0.20100 Y-0.48500
X0.20100 Y-0.48600
X0.20200 Y-0.48600
X0.20200 Y-0.48700
X0.20300 Y-0.48700
X0.20300 Y-0.48800
X0.20400 Y-0.48800
X0.20400 Y-0.48900
X0.20500 Y-0.48900
X0.20500 Y-0.49000
X0.20600 Y-0.49000
X0.20600 Y-0.49100
X0.20700 Y-0.49100
X0.20700 Y-0.49200
X0.20800 Y-0.49200
X0.20800 Y-0.49300
X0.20900 Y-0.49300
X0.20900 Y-0.49400
X0.21000 Y-0.49400
X0.21000 Y-0.49500
X0.21100 Y-0.49500
X0.21100 Y-0.49600
X0.21200 Y-0.49600
X0.21200 Y-0.49700
X0.21300 Y-0.49700
X0.21300 Y-0.49800
X0.21400 Y-0.49800
X0.21400 Y-0.49900
X0.21500 Y-0.49900
X0.21500 Y-0.50000
X0.21600 Y-0.50000
X0.21600 Y-0.50100
X0.21700 Y-0.50100
X0.21700 Y-0.50200
X0.21800 Y-0.50200
X0.21800 Y-0.50300
X0.21900 Y-0.50300
X0.21900 Y-0.50400
X0.22000 Y-0.50400
X0.22000 Y-0.50500
X0.61000 Y-0.50500
X0.61000 Y-0.50400
X0.61100 Y-0.50400
X0.61100 Y-0.50300
X0.61200 Y-0.50300
X0.61200 Y-0.50200
X0.61300 Y-0.50200
X0.61300 Y-0.50100
X0.61400 Y-0.50100
X0.61400 Y-0.50000
X0.61500 Y-0.50000
X0.61500 Y-0.49900
X0.61600 Y-0.49900
X0.61600 Y-0.49800
X0.61700 Y-0.49800
X0.61700 Y-0.49700
X0.61800 Y-0.49700
X0.61800 Y-0.49600
X0.61900 Y-0.49600
X0.61900 Y-0.49500
X0.62000 Y-0.49500
X0.62000 Y-0.49400
X0.62100 Y-0.49400
X0.62100 Y-0.49300
X0.62200 Y-0.49300
X0.62200 Y-0.49200
X0.62300 Y-0.49200
X0.62300 Y-0.49100
X0.62400 Y-0.49100
X0.62400 Y-0.49000
X0.62500 Y-0.49000
X0.62500 Y-0.48900
X0.62600 Y-0.48900
X0.62600 Y-0.48800
X0.62700 Y-0.48800
X0.62700 Y-0.48700
X0.62800 Y-0.48700
X0.62800 Y-0.48600
X0.63000 Y-0.48600
X0.63000 Y-0.48500
X0.65300 Y-0.48500
X0.65300 Y-0.48300
X0.65400 Y-0.48300
X0.65400 Y-0.47900
X0.65500 Y-0.47900
X0.65500 Y-0.47700
X0.65600 Y-0.47700
X0.65600 Y-0.47500
X0.65700 Y-0.47500
X0.65700 Y-0.47400
X0.65800 Y-0.47400
X0.65800 Y-0.47200
X0.65900 Y-0.47200
X0.65900 Y-0.47000
X0.66000 Y-0.47000
X0.66000 Y-0.46900
X0.66100 Y-0.46900
X0.66100 Y-0.46800
X0.66200 Y-0.46800
X0.66200 Y-0.46700
X0.66300 Y-0.46700
X0.66300 Y-0.46600
X0.66500 Y-0.46600
X0.66500 Y-0.46500
X0.66600 Y-0.46500
X0.66600 Y-0.46400
X0.66800 Y-0.46400
X0.66800 Y-0.46300
X0.66900 Y-0.46300
X0.66900 Y-0.46200
X0.67000 Y-0.46200
X0.67000 Y-0.46100
X0.67200 Y-0.46100
X0.67200 Y-0.46000
X0.67600 Y-0.46000
X0.67600 Y-0.45900
X0.68100 Y-0.45900
X0.68100 Y-0.45800
X0.71800 Y-0.45800
X0.71800 Y-0.45900
X0.72300 Y-0.45900
X0.72300 Y-0.46000
X0.72700 Y-0.46000
X0.72700 Y-0.46100
X0.72900 Y-0.46100
X0.72900 Y-0.46200
X0.73000 Y-0.46200
X0.73000 Y-0.46300
X0.73100 Y-0.46300
X0.73100 Y-0.46400
X0.73300 Y-0.46400
X0.73300 Y-0.46500
X0.73400 Y-0.46500
X0.73400 Y-0.46600
X0.73600 Y-0.46600
X0.73600 Y-0.46700
X0.73700 Y-0.46700
X0.73700 Y-0.46800
X0.73800 Y-0.46800
X0.73800 Y-0.46900
X0.73900 Y-0.46900
X0.73900 Y-0.47000
X0.74000 Y-0.47000
X0.74000 Y-0.47200
X0.74100 Y-0.47200
X0.74100 Y-0.47400
X0.74200 Y-0.47400
X0.74200 Y-0.47500
X0.74300 Y-0.47500
X0.74300 Y-0.47700
X0.74400 Y-0.47700
X0.74400 Y-0.47900
X0.74500 Y-0.47900
X0.74500 Y-0.48300
X0.74600 Y-0.48300
X0.74600 Y-0.48900
X0.74700 Y-0.48900
X0.74700 Y-0.51000
X0.74600 Y-0.51000
X0.74600 Y-0.51600
X0.74500 Y-0.51600
X0.74500 Y-0.52000
X0.74400 Y-0.52000
X0.74400 Y-0.52200
X0.74300 Y-0.52200
X0.74300 Y-0.52400
X0.74200 Y-0.52400
X0.74200 Y-0.52500
X0.74100 Y-0.52500
X0.74100 Y-0.52700
X0.74000 Y-0.52700
X0.74000 Y-0.52900
X0.73900 Y-0.52900
X0.73900 Y-0.53000
X0.73800 Y-0.53000
X0.73800 Y-0.53100
X0.73700 Y-0.53100
X0.73700 Y-0.53200
X0.73600 Y-0.53200
X0.73600 Y-0.53300
X0.73400 Y-0.53300
X0.73400 Y-0.53400
X0.73300 Y-0.53400
X0.73300 Y-0.53500
X0.73100 Y-0.53500
X0.73100 Y-0.53600
X0.73000 Y-0.53600
X0.73000 Y-0.53700
X0.72900 Y-0.53700
X0.72900 Y-0.53800
X0.72700 Y-0.53800
X0.72700 Y-0.53900
X0.72300 Y-0.53900
X0.72300 Y-0.54000
X0.71800 Y-0.54000
X0.71800 Y-0.54100
X0.68100 Y-0.54100
X0.68100 Y-0.54000
X0.67600 Y-0.54000
X0.67600 Y-0.53900
X0.67200 Y-0.53900
X0.67200 Y-0.53800
X0.67000 Y-0.53800
X0.67000 Y-0.53700
X0.66900 Y-0.53700
X0.66900 Y-0.53600
X0.66800 Y-0.53600
X0.66800 Y-0.53500
X0.66600 Y-0.53500
X0.66600 Y-0.53400
X0.66500 Y-0.53400
X0.66500 Y-0.53300
X0.66300 Y-0.53300
X0.66300 Y-0.53200
X0.66200 Y-0.53200
X0.66200 Y-0.53100
X0.66100 Y-0.53100
X0.66100 Y-0.53000
X0.66000 Y-0.53000
X0.66000 Y-0.52900
X0.65900 Y-0.52900
X0.65900 Y-0.52700
X0.65800 Y-0.52700
X0.65800 Y-0.52500
X0.65700 Y-0.52500
X0.65700 Y-0.52400
X0.65600 Y-0.52400
X0.65600 Y-0.52200
X0.65500 Y-0.52200
X0.65500 Y-0.52000
X0.65400 Y-0.52000
X0.65400 Y-0.51600
X0.65300 Y-0.51600
X0.65300 Y-0.51500
X0.65000 Y-0.51500
X0.65000 Y-0.51600
X0.64900 Y-0.51600
X0.64900 Y-0.51700
X0.64800 Y-0.51700
X0.64800 Y-0.51800
X0.64700 Y-0.51800
X0.64700 Y-0.51900
X0.64600 Y-0.51900
X0.64600 Y-0.52000
X0.64500 Y-0.52000
X0.64500 Y-0.52100
X0.64400 Y-0.52100
X0.64400 Y-0.52200
X0.64300 Y-0.52200
X0.64300 Y-0.52300
X0.64200 Y-0.52300
X0.64200 Y-0.52400
X0.64100 Y-0.52400
X0.64100 Y-0.52500
X0.64000 Y-0.52500
X0.64000 Y-0.52600
X0.63900 Y-0.52600
X0.63900 Y-0.52700
X0.63800 Y-0.52700
X0.63800 Y-0.52800
X0.63700 Y-0.52800
X0.63700 Y-0.52900
X0.63600 Y-0.52900
X0.63600 Y-0.53000
X0.63500 Y-0.53000
X0.63500 Y-0.53100
X0.63400 Y-0.53100
X0.63400 Y-0.53200
X0.63300 Y-0.53200
X0.63300 Y-0.53300
X0.63200 Y-0.53300
X0.63200 Y-0.53400
X0.63000 Y-0.53400
X0.63000 Y-0.53500
X0.20000 Y-0.53500
X0.20000 Y-0.53400
X0.19800 Y-0.53400
X0.19800 Y-0.53300
X0.19700 Y-0.53300
X0.19700 Y-0.53200
X0.19600 Y-0.53200
X0.19600 Y-0.53100
X0.19500 Y-0.53100
X0.19500 Y-0.53000
X0.19400 Y-0.53000
X0.19400 Y-0.52900
X0.19300 Y-0.52900
X0.19300 Y-0.52800
X0.19200 Y-0.52800
X0.19200 Y-0.52700
X0.19100 Y-0.52700
X0.19100 Y-0.52600
X0.19000 Y-0.52600
X0.19000 Y-0.52500
X0.18900 Y-0.52500
X0.18900 Y-0.52400
X0.18800 Y-0.52400
X0.18800 Y-0.52300
X0.18700 Y-0.52300
X0.18700 Y-0.52200
X0.18600 Y-0.52200
X0.18600 Y-0.52100
X0.18500 Y-0.52100
X0.18500 Y-0.52000
X0.18400 Y-0.52000
X0.18400 Y-0.51900
X0.18300 Y-0.51900
X0.18300 Y-0.51800
X0.18200 Y-0.51800
X0.18200 Y-0.51700
X0.18100 Y-0.51700
X0.18100 Y-0.51600
X0.18000 Y-0.51600
X0.18000 Y-0.51500
X0.17900 Y-0.51500
X0.17900 Y-0.51400
X0.17800 Y-0.51400
X0.17800 Y-0.51300
X0.17700 Y-0.51300
X0.17700 Y-0.51200
X0.17600 Y-0.51200
X0.17600 Y-0.51100
X0.17500 Y-0.51100
X0.17500 Y-0.51000
X0.17400 Y-0.51000
X0.17400 Y-0.50900
X0.17300 Y-0.50900
X0.17300 Y-0.50800
X0.17200 Y-0.50800
X0.17200 Y-0.50700
X0.17100 Y-0.50700
X0.17100 Y-0.50600
X0.17000 Y-0.50600
X0.17000 Y-0.50500
X0.16900 Y-0.50500
X0.16900 Y-0.50400
X0.16800 Y-0.50400
X0.16800 Y-0.50300
X0.16700 Y-0.50300
X0.16700 Y-0.50200
X0.16600 Y-0.50200
X0.16600 Y-0.50100
X0.16500 Y-0.50100
X0.16500 Y-0.50000
X0.16400 Y-0.50000
X0.16400 Y-0.49900
X0.16300 Y-0.49900
X0.16300 Y-0.49800
X0.16200 Y-0.49800
X0.16200 Y-0.49700
X0.16100 Y-0.49700
X0.16100 Y-0.49600
X0.16000 Y-0.49600
X0.16000 Y-0.49500
X0.15900 Y-0.49500
X0.15900 Y-0.49400
X0.15800 Y-0.49400
X0.15800 Y-0.49300
X0.15700 Y-0.49300
X0.15700 Y-0.49200
X0.15600 Y-0.49200
X0.15600 Y-0.49100
X0.15500 Y-0.49100
X0.15500 Y-0.49000
X0.15400 Y-0.49000
X0.15400 Y-0.48900
X0.15300 Y-0.48900
X0.15300 Y-0.48800
X0.15200 Y-0.48800
X0.15200 Y-0.48700
X0.15100 Y-0.48700
X0.15100 Y-0.48600
X0.15000 Y-0.48600
X0.15000 Y-0.48500
X0.14900 Y-0.48500
X0.14900 Y-0.48400
X0.14800 Y-0.48400
X0.14800 Y-0.48300
X0.14700 Y-0.48300
X0.14700 Y-0.48200
X0.14600 Y-0.48200
X0.14600 Y-0.48100
X0.14500 Y-0.48100
X0.14500 Y-0.48000
X0.14400 Y-0.48000
X0.14400 Y-0.47900
X0.14300 Y-0.47900
X0.14300 Y-0.47800
X0.14200 Y-0.47800
X0.14200 Y-0.47700
X0.14100 Y-0.47700
X0.14100 Y-0.47600
X0.14000 Y-0.47600
X0.14000 Y-0.47500
X0.13900 Y-0.47500
X0.13900 Y-0.47400
X0.13800 Y-0.47400
X0.13800 Y-0.47300
X0.13700 Y-0.47300
X0.13700 Y-0.47200
X0.13600 Y-0.47200
X0.13600 Y-0.47100
X0.13500 Y-0.47100
X0.13500 Y-0.47000
X0.13400 Y-0.47000
X0.13400 Y-0.46900
X0.13300 Y-0.46900
X0.13300 Y-0.46800
X0.13200 Y-0.46800
X0.13200 Y-0.46700
X0.13100 Y-0.46700
X0.13100 Y-0.46600
X0.13000 Y-0.46600
X0.13000 Y-0.46500
X0.12900 Y-0.46500
X0.12900 Y-0.46400
X0.12800 Y-0.46400
X0.12800 Y-0.46300
X0.12700 Y-0.46300
X0.12700 Y-0.46200
X0.12600 Y-0.46200
X0.12600 Y-0.46100
X0.12500 Y-0.46100
X0.12500 Y-0.46000
X0.12400 Y-0.46000
X0.12400 Y-0.45900
X0.12300 Y-0.45900
X0.12300 Y-0.45800
X0.12200 Y-0.45800
X0.12200 Y-0.45700
X0.12100 Y-0.45700
X0.12100 Y-0.45600
X0.12000 Y-0.45600
X0.12000 Y-0.45500
X0.11900 Y-0.45500
X0.11900 Y-0.45400
X0.11800 Y-0.45400
X0.11800 Y-0.45300
X0.11700 Y-0.45300
X0.11700 Y-0.45200
X0.11600 Y-0.45200
X0.11600 Y-0.45000
X0.11500 Y-0.45000
X0.11500 Y-0.36000
X0.11600 Y-0.36000
X0.11600 Y-0.35800
X0.11700 Y-0.35800
X0.11700 Y-0.35700
X0.11800 Y-0.35700
X0.11800 Y-0.35600
X0.11900 Y-0.35600
X0.11900 Y-0.35500
X0.12000 Y-0.35500
X0.12000 Y-0.35400
X0.12100 Y-0.35400
X0.12100 Y-0.35300
X0.12200 Y-0.35300
X0.12200 Y-0.35200
X0.12300 Y-0.35200
X0.12300 Y-0.35100
X0.12400 Y-0.35100
X0.12400 Y-0.35000
X0.12500 Y-0.35000
X0.12500 Y-0.34900
X0.12600 Y-0.34900
X0.12600 Y-0.34800
X0.12700 Y-0.34800
X0.12700 Y-0.34700
X0.12800 Y-0.34700
X0.12800 Y-0.34600
X0.12900 Y-0.34600
X0.12900 Y-0.34500
X0.13000 Y-0.34500
X0.13000 Y-0.34400
X0.13100 Y-0.34400
X0.13100 Y-0.34300
X0.13200 Y-0.34300
X0.13200 Y-0.34200
X0.13300 Y-0.34200
X0.13300 Y-0.34100
X0.13400 Y-0.34100
X0.13400 Y-0.34000
X0.13500 Y-0.34000
X0.13500 Y-0.33900
X0.13600 Y-0.33900
X0.13600 Y-0.33800
X0.13700 Y-0.33800
X0.13700 Y-0.33700
X0.13800 Y-0.33700
X0.13800 Y-0.33600
X0.14000 Y-0.33600
X0.14000 Y-0.33500
X0.16700 Y-0.33500
X0.16700 Y-0.32800
X0.29200 Y-0.32800
X0.29200 Y-0.33600
G04 P0 ( dwell for no time -- G64 should not smooth over this point )
G00 Z0.02000 ( retract )

G00 X0.73400 Y-0.36600 ( rapid move to begin. )
G01 Z-0.00300 F4.75000 ( plunge. )
G04 P0 ( dwell for no time -- G64 should not smooth over this point )
X0.73400 Y-0.36600
X0.73600 Y-0.36600
X0.73600 Y-0.36700
X0.73700 Y-0.36700
X0.73700 Y-0.36800
X0.73800 Y-0.36800
X0.73800 Y-0.36900
X0.73900 Y-0.36900
X0.73900 Y-0.37000
X0.74000 Y-0.37000
X0.74000 Y-0.37200
X0.74100 Y-0.37200
X0.74100 Y-0.37400
X0.74200 Y-0.37400
X0.74200 Y-0.37500
X0.74300 Y-0.37500
X0.74300 Y-0.37700
X0.74400 Y-0.37700
X0.74400 Y-0.37900
X0.74500 Y-0.37900
X0.74500 Y-0.38300
X0.74600 Y-0.38300
X0.74600 Y-0.38900
X0.74700 Y-0.38900
X0.74700 Y-0.41000
X0.74600 Y-0.41000
X0.74600 Y-0.41600
X0.74500 Y-0.41600
X0.74500 Y-0.42000
X0.74400 Y-0.42000
X0.74400 Y-0.42200
X0.74300 Y-0.42200
X0.74300 Y-0.42400
X0.74200 Y-0.42400
X0.74200 Y-0.42500
X0.74100 Y-0.42500
X0.74100 Y-0.42700
X0.74000 Y-0.42700
X0.74000 Y-0.42900
X0.73900 Y-0.42900
X0.73900 Y-0.43000
X0.73800 Y-0.43000
X0.73800 Y-0.43100
X0.73700 Y-0.43100
X0.73700 Y-0.43200
X0.73600 Y-0.43200
X0.73600 Y-0.43300
X0.73400 Y-0.43300
X0.73400 Y-0.43400
X0.73300 Y-0.43400
X0.73300 Y-0.43500
X0.73100 Y-0.43500
X0.73100 Y-0.43600
X0.73000 Y-0.43600
X0.73000 Y-0.43700
X0.72900 Y-0.43700
X0.72900 Y-0.43800
X0.72700 Y-0.43800
X0.72700 Y-0.43900
X0.72300 Y-0.43900
X0.72300 Y-0.44000
X0.71800 Y-0.44000
X0.71800 Y-0.44100
X0.68100 Y-0.44100
X0.68100 Y-0.44000
X0.67600 Y-0.44000
X0.67600 Y-0.43900
X0.67200 Y-0.43900
X0.67200 Y-0.43800
X0.67000 Y-0.43800
X0.67000 Y-0.43700
X0.66900 Y-0.43700
X0.66900 Y-0.43600
X0.66800 Y-0.43600
X0.66800 Y-0.43500
X0.66600 Y-0.43500
X0.66600 Y-0.43400
X0.66500 Y-0.43400
X0.66500 Y-0.43300
X0.66300 Y-0.43300
X0.66300 Y-0.43200
X0.66200 Y-0.43200
X0.66200 Y-0.43100
X0.66100 Y-0.43100
X0.66100 Y-0.43000
X0.66000 Y-0.43000
X0.66000 Y-0.42900
X0.65900 Y-0.42900
X0.65900 Y-0.42700
X0.65800 Y-0.42700
X0.65800 Y-0.42500
X0.65700 Y-0.42500
X0.65700 Y-0.42400
X0.65600 Y-0.42400
X0.65600 Y-0.42200
X0.65500 Y-0.42200
X0.65500 Y-0.42000
X0.65400 Y-0.42000
X0.65400 Y-0.41600
X0.65300 Y-0.41600
X0.65300 Y-0.41500
X0.64000 Y-0.41500
X0.64000 Y-0.41600
X0.63900 Y-0.41600
X0.63900 Y-0.41700
X0.63800 Y-0.41700
X0.63800 Y-0.41800
X0.63700 Y-0.41800
X0.63700 Y-0.41900
X0.63600 Y-0.41900
X0.63600 Y-0.42000
X0.63500 Y-0.42000
X0.63500 Y-0.42100
X0.63400 Y-0.42100
X0.63400 Y-0.42200
X0.63300 Y-0.42200
X0.63300 Y-0.42300
X0.63200 Y-0.42300
X0.63200 Y-0.42400
X0.63100 Y-0.42400
X0.63100 Y-0.42500
X0.63000 Y-0.42500
X0.63000 Y-0.42600
X0.62900 Y-0.42600
X0.62900 Y-0.42700
X0.62800 Y-0.42700
X0.62800 Y-0.42800
X0.62700 Y-0.42800
X0.62700 Y-0.42900
X0.62600 Y-0.42900
X0.62600 Y-0.43000
X0.62500 Y-0.43000
X0.62500 Y-0.43100
X0.62400 Y-0.43100
X0.62400 Y-0.43200
X0.62300 Y-0.43200
X0.62300 Y-0.43300
X0.62200 Y-0.43300
X0.62200 Y-0.43400
X0.62100 Y-0.43400
X0.62100 Y-0.43500
X0.62000 Y-0.43500
X0.62000 Y-0.43600
X0.61900 Y-0.43600
X0.61900 Y-0.43700
X0.61800 Y-0.43700
X0.61800 Y-0.43800
X0.61700 Y-0.43800
X0.61700 Y-0.43900
X0.61600 Y-0.43900
X0.61600 Y-0.44000
X0.61500 Y-0.44000
X0.61500 Y-0.44100
X0.61400 Y-0.44100
X0.61400 Y-0.44200
X0.61300 Y-0.44200
X0.61300 Y-0.44300
X0.61200 Y-0.44300
X0.61200 Y-0.44400
X0.61100 Y-0.44400
X0.61100 Y-0.44500
X0.61000 Y-0.44500
X0.61000 Y-0.44600
X0.60900 Y-0.44600
X0.60900 Y-0.44700
X0.60800 Y-0.44700
X0.60800 Y-0.44800
X0.60700 Y-0.44800
X0.60700 Y-0.44900
X0.60600 Y-0.44900
X0.60600 Y-0.45000
X0.60500 Y-0.45000
X0.60500 Y-0.45100
X0.60400 Y-0.45100
X0.60400 Y-0.45200
X0.60300 Y-0.45200
X0.60300 Y-0.45300
X0.60200 Y-0.45300
X0.60200 Y-0.45400
X0.60100 Y-0.45400
X0.60100 Y-0.45500
X0.60000 Y-0.45500
X0.60000 Y-0.45600
X0.59900 Y-0.45600
X0.59900 Y-0.45700
X0.59800 Y-0.45700
X0.59800 Y-0.45800
X0.59700 Y-0.45800
X0.59700 Y-0.45900
X0.59600 Y-0.45900
X0.59600 Y-0.46000
X0.59500 Y-0.46000
X0.59500 Y-0.46100
X0.59400 Y-0.46100
X0.59400 Y-0.46200
X0.59300 Y-0.46200
X0.59300 Y-0.46300
X0.59200 Y-0.46300
X0.59200 Y-0.46400
X0.59100 Y-0.46400
X0.59100 Y-0.46500
X0.59000 Y-0.46500
X0.59000 Y-0.46600
X0.58900 Y-0.46600
X0.58900 Y-0.46700
X0.58800 Y-0.46700
X0.58800 Y-0.46800
X0.58700 Y-0.46800
X0.58700 Y-0.46900
X0.58600 Y-0.46900
X0.58600 Y-0.47000
X0.58500 Y-0.47000
X0.58500 Y-0.47100
X0.58400 Y-0.47100
X0.58400 Y-0.47200
X0.58300 Y-0.47200
X0.58300 Y-0.47300
X0.58200 Y-0.47300
X0.58200 Y-0.47400
X0.58100 Y-0.47400
X0.58100 Y-0.47500
X0.58000 Y-0.47500
X0.58000 Y-0.47600
X0.57900 Y-0.47600
X0.57900 Y-0.47700
X0.57800 Y-0.47700
X0.57800 Y-0.47800
X0.57700 Y-0.47800
X0.57700 Y-0.47900
X0.57600 Y-0.47900
X0.57600 Y-0.48000
X0.57500 Y-0.48000
X0.57500 Y-0.48100
X0.57400 Y-0.48100
X0.57400 Y-0.48200
X0.57300 Y-0.48200
X0.57300 Y-0.48300
X0.57200 Y-0.48300
X0.57200 Y-0.48400
X0.57000 Y-0.48400
X0.57000 Y-0.48500
X0.26000 Y-0.48500
X0.26000 Y-0.48400
X0.25800 Y-0.48400
X0.25800 Y-0.48300
X0.25700 Y-0.48300
X0.25700 Y-0.48200
X0.25600 Y-0.48200
X0.25600 Y-0.48100
X0.25500 Y-0.48100
X0.25500 Y-0.48000
X0.25400 Y-0.48000
X0.25400 Y-0.47900
X0.25300 Y-0.47900
X0.25300 Y-0.47800
X0.25200 Y-0.47800
X0.25200 Y-0.47700
X0.25100 Y-0.47700
X0.25100 Y-0.47600
X0.25000 Y-0.47600
X0.25000 Y-0.47500
X0.24900 Y-0.47500
X0.24900 Y-0.47400
X0.24800 Y-0.47400
X0.24800 Y-0.47300
X0.24700 Y-0.47300
X0.24700 Y-0.47200
X0.24600 Y-0.47200
X0.24600 Y-0.47100
X0.24500 Y-0.47100
X0.24500 Y-0.47000
X0.24400 Y-0.47000
X0.24400 Y-0.46900
X0.24300 Y-0.46900
X0.24300 Y-0.46800
X0.24200 Y-0.46800
X0.24200 Y-0.46700
X0.24100 Y-0.46700
X0.24100 Y-0.46600
X0.24000 Y-0.46600
X0.24000 Y-0.46500
X0.23900 Y-0.46500
X0.23900 Y-0.46400
X0.23800 Y-0.46400
X0.23800 Y-0.46300
X0.23700 Y-0.46300
X0.23700 Y-0.46200
X0.23600 Y-0.46200
X0.23600 Y-0.46100
X0.23500 Y-0.46100
X0.23500 Y-0.46000
X0.23400 Y-0.46000
X0.23400 Y-0.45900
X0.23300 Y-0.45900
X0.23300 Y-0.45800
X0.23200 Y-0.45800
X0.23200 Y-0.45700
X0.23100 Y-0.45700
X0.23100 Y-0.45600
X0.23000 Y-0.45600
X0.23000 Y-0.45500
X0.22900 Y-0.45500
X0.22900 Y-0.45400
X0.22800 Y-0.45400
X0.22800 Y-0.45300
X0.22700 Y-0.45300
X0.22700 Y-0.45200
X0.22600 Y-0.45200
X0.22600 Y-0.45100
X0.22500 Y-0.45100
X0.22500 Y-0.45000
X0.22400 Y-0.45000
X0.22400 Y-0.44900
X0.22300 Y-0.44900
X0.22300 Y-0.44800
X0.22200 Y-0.44800
X0.22200 Y-0.44700
X0.22100 Y-0.44700
X0.22100 Y-0.44600
X0.22000 Y-0.44600
X0.22000 Y-0.44500
X0.21900 Y-0.44500
X0.21900 Y-0.44400
X0.21800 Y-0.44400
X0.21800 Y-0.44300
X0.21700 Y-0.44300
X0.21700 Y-0.44200
X0.21600 Y-0.44200
X0.21600 Y-0.44000
X0.21500 Y-0.44000
X0.21500 Y-0.42100
X0.16700 Y-0.42100
X0.16700 Y-0.37800
X0.29200 Y-0.37800
X0.29200 Y-0.42100
X0.24700 Y-0.42100
X0.24700 Y-0.42200
X0.24800 Y-0.42200
X0.24800 Y-0.42300
X0.24900 Y-0.42300
X0.24900 Y-0.42400
X0.25000 Y-0.42400
X0.25000 Y-0.42500
X0.25100 Y-0.42500
X0.25100 Y-0.42600
X0.25200 Y-0.42600
X0.25200 Y-0.42700
X0.25300 Y-0.42700
X0.25300 Y-0.42800
X0.25400 Y-0.42800
X0.25400 Y-0.42900
X0.25500 Y-0.42900
X0.25500 Y-0.43000
X0.25600 Y-0.43000
X0.25600 Y-0.43100
X0.25700 Y-0.43100
X0.25700 Y-0.43200
X0.25800 Y-0.43200
X0.25800 Y-0.43300
X0.25900 Y-0.43300
X0.25900 Y-0.43400
X0.26000 Y-0.43400
X0.26000 Y-0.43500
X0.26100 Y-0.43500
X0.26100 Y-0.43600
X0.26200 Y-0.43600
X0.26200 Y-0.43700
X0.26300 Y-0.43700
X0.26300 Y-0.43800
X0.26400 Y-0.43800
X0.26400 Y-0.43900
X0.26500 Y-0.43900
X0.26500 Y-0.44000
X0.26600 Y-0.44000
X0.26600 Y-0.44100
X0.26700 Y-0.44100
X0.26700 Y-0.44200
X0.26800 Y-0.44200
X0.26800 Y-0.44300
X0.26900 Y-0.44300
X0.26900 Y-0.44400
X0.27000 Y-0.44400
X0.27000 Y-0.44500
X0.27100 Y-0.44500
X0.27100 Y-0.44600
X0.27200 Y-0.44600
X0.27200 Y-0.44700
X0.27300 Y-0.44700
X0.27300 Y-0.44800
X0.27400 Y-0.44800
X0.27400 Y-0.44900
X0.27500 Y-0.44900
X0.27500 Y-0.45000
X0.27600 Y-0.45000
X0.27600 Y-0.45100
X0.27700 Y-0.45100
X0.27700 Y-0.45200
X0.27800 Y-0.45200
X0.27800 Y-0.45300
X0.27900 Y-0.45300
X0.27900 Y-0.45400
X0.28000 Y-0.45400
X0.28000 Y-0.45500
X0.55000 Y-0.45500
X0.55000 Y-0.45400
X0.55100 Y-0.45400
X0.55100 Y-0.45300
X0.55200 Y-0.45300
X0.55200 Y-0.45200
X0.55300 Y-0.45200
X0.55300 Y-0.45100
X0.55400 Y-0.45100
X0.55400 Y-0.45000
X0.55500 Y-0.45000
X0.55500 Y-0.44900
X0.55600 Y-0.44900
X0.55600 Y-0.44800
X0.55700 Y-0.44800
X0.55700 Y-0.44700
X0.55800 Y-0.44700
X0.55800 Y-0.44600
X0.55900 Y-0.44600
X0.55900 Y-0.44500
X0.56000 Y-0.44500
X0.56000 Y-0.44400
X0.56100 Y-0.44400
X0.56100 Y-0.44300
X0.56200 Y-0.44300
X0.56200 Y-0.44200
X0.56300 Y-0.44200
X0.56300 Y-0.44100
X0.56400 Y-0.44100
X0.56400 Y-0.44000
X0.56500 Y-0.44000
X0.56500 Y-0.43900
X0.56600 Y-0.43900
X0.56600 Y-0.43800
X0.56700 Y-0.43800
X0.56700 Y-0.43700
X0.56800 Y-0.43700
X0.56800 Y-0.43600
X0.56900 Y-0.43600
X0.56900 Y-0.43500
X0.57000 Y-0.43500
X0.57000 Y-0.43400
X0.57100 Y-0.43400
X0.57100 Y-0.43300
X0.57200 Y-0.43300
X0.57200 Y-0.43200
X0.57300 Y-0.43200
X0.57300 Y-0.43100
X0.57400 Y-0.43100
X0.57400 Y-0.43000
X0.57500 Y-0.43000
X0.57500 Y-0.42900
X0.57600 Y-0.42900
X0.57600 Y-0.42800
X0.57700 Y-0.42800
X0.57700 Y-0.42700
X0.57800 Y-0.42700
X0.57800 Y-0.42600
X0.57900 Y-0.42600
X0.57900 Y-0.42500
X0.58000 Y-0.42500
X0.58000 Y-0.42400
X0.58100 Y-0.42400
X0.58100 Y-0.42300
X0.58200 Y-0.42300
X0.58200 Y-0.42200
X0.58300 Y-0.42200
X0.58300 Y-0.42100
X0.58400 Y-0.42100
X0.58400 Y-0.42000
X0.58500 Y-0.42000
X0.58500 Y-0.41900
X0.58600 Y-0.41900
X0.58600 Y-0.41800
X0.58700 Y-0.41800
X0.58700 Y-0.41700
X0.58800 Y-0.41700
X0.58800 Y-0.41600
X0.58900 Y-0.41600
X0.58900 Y-0.41500
X0.59000 Y-0.41500
X0.59000 Y-0.41400
X0.59100 Y-0.41400
X0.59100 Y-0.41300
X0.59200 Y-0.41300
X0.59200 Y-0.41200
X0.59300 Y-0.41200
X0.59300 Y-0.41100
X0.59400 Y-0.41100
X0.59400 Y-0.41000
X0.59500 Y-0.41000
X0.59500 Y-0.40900
X0.59600 Y-0.40900
X0.59600 Y-0.40800
X0.59700 Y-0.40800
X0.59700 Y-0.40700
X0.59800 Y-0.40700
X0.59800 Y-0.40600
X0.59900 Y-0.40600
X0.59900 Y-0.40500
X0.60000 Y-0.40500
X0.60000 Y-0.40400
X0.60100 Y-0.40400
X0.60100 Y-0.40300
X0.60200 Y-0.40300
X0.60200 Y-0.40200
X0.60300 Y-0.40200
X0.60300 Y-0.40100
X0.60400 Y-0.40100
X0.60400 Y-0.40000
X0.60500 Y-0.40000
X0.60500 Y-0.39900
X0.60600 Y-0.39900
X0.60600 Y-0.39800
X0.60700 Y-0.39800
X0.60700 Y-0.39700
X0.60800 Y-0.39700
X0.60800 Y-0.39600
X0.60900 Y-0.39600
X0.60900 Y-0.39500
X0.61000 Y-0.39500
X0.61000 Y-0.39400
X0.61100 Y-0.39400
X0.61100 Y-0.39300
X0.61200 Y-0.39300
X0.61200 Y-0.39200
X0.61300 Y-0.39200
X0.61300 Y-0.39100
X0.61400 Y-0.39100
X0.61400 Y-0.39000
X0.61500 Y-0.39000
X0.61500 Y-0.38900
X0.61600 Y-0.38900
X0.61600 Y-0.38800
X0.61700 Y-0.38800
X0.61700 Y-0.38700
X0.61800 Y-0.38700
X0.61800 Y-0.38600
X0.62000 Y-0.38600
X0.62000 Y-0.38500
X0.65300 Y-0.38500
X0.65300 Y-0.38300
X0.65400 Y-0.38300
X0.65400 Y-0.37900
X0.65500 Y-0.37900
X0.65500 Y-0.37700
X0.65600 Y-0.37700
X0.65600 Y-0.37500
X0.65700 Y-0.37500
X0.65700 Y-0.37400
X0.65800 Y-0.37400
X0.65800 Y-0.37200
X0.65900 Y-0.37200
X0.65900 Y-0.37000
X0.66000 Y-0.37000
X0.66000 Y-0.36900
X0.66100 Y-0.36900
X0.66100 Y-0.36800
X0.66200 Y-0.36800
X0.66200 Y-0.36700
X0.66300 Y-0.36700
X0.66300 Y-0.36600
X0.66500 Y-0.36600
X0.66500 Y-0.36500
X0.66600 Y-0.36500
X0.66600 Y-0.36400
X0.66800 Y-0.36400
X0.66800 Y-0.36300
X0.66900 Y-0.36300
X0.66900 Y-0.36200
X0.67000 Y-0.36200
X0.67000 Y-0.36100
X0.67200 Y-0.36100
X0.67200 Y-0.36000
X0.67600 Y-0.36000
X0.67600 Y-0.35900
X0.68100 Y-0.35900
X0.68100 Y-0.35800
X0.71800 Y-0.35800
X0.71800 Y-0.35900
X0.72300 Y-0.35900
X0.72300 Y-0.36000
X0.72700 Y-0.36000
X0.72700 Y-0.36100
X0.72900 Y-0.36100
X0.72900 Y-0.36200
X0.73000 Y-0.36200
X0.73000 Y-0.36300
X0.73100 Y-0.36300
X0.73100 Y-0.36400
X0.73300 Y-0.36400
X0.73300 Y-0.36500
X0.73400 Y-0.36500
X0.73400 Y-0.36600
G04 P0 ( dwell for no time -- G64 should not smooth over this point )
G00 Z0.02000 ( retract )

G00 X0.75400 Y-0.06600 ( rapid move to begin. )
G01 Z-0.00300 F4.75000 ( plunge. )
G04 P0 ( dwell for no time -- G64 should not smooth over this point )
X0.75400 Y-0.06600
X0.75400 Y-0.14800
X0.69100 Y-0.14800
X0.69100 Y-0.14900
X0.69000 Y-0.14900
X0.69000 Y-0.15000
X0.68900 Y-0.15000
X0.68900 Y-0.15100
X0.68800 Y-0.15100
X0.68800 Y-0.15200
X0.68500 Y-0.15200
X0.68500 Y-0.15300
X0.68200 Y-0.15300
X0.68200 Y-0.15400
X0.67900 Y-0.15400
X0.67900 Y-0.15500
X0.67800 Y-0.15500
X0.67800 Y-0.15600
X0.67500 Y-0.15600
X0.67500 Y-0.15700
X0.67400 Y-0.15700
X0.67400 Y-0.15800
X0.67100 Y-0.15800
X0.67100 Y-0.15900
X0.67000 Y-0.15900
X0.67000 Y-0.16000
X0.66900 Y-0.16000
X0.66900 Y-0.16100
X0.66800 Y-0.16100
X0.66800 Y-0.16200
X0.66700 Y-0.16200
X0.66700 Y-0.16300
X0.66500 Y-0.16300
X0.66500 Y-0.16400
X0.66400 Y-0.16400
X0.66400 Y-0.16500
X0.66200 Y-0.16500
X0.66200 Y-0.16600
X0.66100 Y-0.16600
X0.66100 Y-0.16700
X0.66000 Y-0.16700
X0.66000 Y-0.16800
X0.65900 Y-0.16800
X0.65900 Y-0.16900
X0.65800 Y-0.16900
X0.65800 Y-0.17100
X0.65700 Y-0.17100
X0.65700 Y-0.17300
X0.65600 Y-0.17300
X0.65600 Y-0.17400
X0.65500 Y-0.17400
X0.65500 Y-0.17500
X0.65400 Y-0.17500
X0.65400 Y-0.17600
X0.65300 Y-0.17600
X0.65300 Y-0.17700
X0.65200 Y-0.17700
X0.65200 Y-0.18000
X0.65100 Y-0.18000
X0.65100 Y-0.18100
X0.65000 Y-0.18100
X0.65000 Y-0.18400
X0.64900 Y-0.18400
X0.64900 Y-0.18500
X0.64800 Y-0.18500
X0.64800 Y-0.18800
X0.64700 Y-0.18800
X0.64700 Y-0.19100
X0.64600 Y-0.19100
X0.64600 Y-0.19400
X0.64500 Y-0.19400
X0.64500 Y-0.19500
X0.64400 Y-0.19500
X0.64400 Y-0.19600
X0.64300 Y-0.19600
X0.64300 Y-0.19700
X0.64200 Y-0.19700
X0.64200 Y-0.19800
X0.64100 Y-0.19800
X0.64100 Y-0.19900
X0.64000 Y-0.19900
X0.64000 Y-0.20000
X0.63900 Y-0.20000
X0.63900 Y-0.20100
X0.63800 Y-0.20100
X0.63800 Y-0.20200
X0.63700 Y-0.20200
X0.63700 Y-0.20300
X0.63600 Y-0.20300
X0.63600 Y-0.20400
X0.63500 Y-0.20400
X0.63500 Y-0.20500
X0.63400 Y-0.20500
X0.63400 Y-0.20600
X0.63300 Y-0.20600
X0.63300 Y-0.20700
X0.63200 Y-0.20700
X0.63200 Y-0.20800
X0.63100 Y-0.20800
X0.63100 Y-0.20900
X0.63000 Y-0.20900
X0.63000 Y-0.21000
X0.62900 Y-0.21000
X0.62900 Y-0.21100
X0.62800 Y-0.21100
X0.62800 Y-0.21200
X0.62700 Y-0.21200
X0.62700 Y-0.21300
X0.62600 Y-0.21300
X0.62600 Y-0.21400
X0.62500 Y-0.21400
X0.62500 Y-0.21500
X0.62400 Y-0.21500
X0.62400 Y-0.21600
X0.62300 Y-0.21600
X0.62300 Y-0.21700
X0.62200 Y-0.21700
X0.62200 Y-0.21800
X0.62100 Y-0.21800
X0.62100 Y-0.21900
X0.62000 Y-0.21900
X0.62000 Y-0.22000
X0.61900 Y-0.22000
X0.61900 Y-0.22100
X0.61800 Y-0.22100
X0.61800 Y-0.22200
X0.61700 Y-0.22200
X0.61700 Y-0.22300
X0.61600 Y-0.22300
X0.61600 Y-0.22400
X0.61500 Y-0.22400
X0.61500 Y-0.22500
X0.61400 Y-0.22500
X0.61400 Y-0.22600
X0.61300 Y-0.22600
X0.61300 Y-0.22700
X0.61200 Y-0.22700
X0.61200 Y-0.22800
X0.61100 Y-0.22800
X0.61100 Y-0.22900
X0.61000 Y-0.22900
X0.61000 Y-0.23000
X0.60900 Y-0.23000
X0.60900 Y-0.23100
X0.60800 Y-0.23100
X0.60800 Y-0.23200
X0.60700 Y-0.23200
X0.60700 Y-0.23300
X0.60600 Y-0.23300
X0.60600 Y-0.23400
X0.60500 Y-0.23400
X0.60500 Y-0.23500
X0.60400 Y-0.23500
X0.60400 Y-0.23600
X0.60300 Y-0.23600
X0.60300 Y-0.23700
X0.60200 Y-0.23700
X0.60200 Y-0.23800
X0.60100 Y-0.23800
X0.60100 Y-0.23900
X0.60000 Y-0.23900
X0.60000 Y-0.24000
X0.59900 Y-0.24000
X0.59900 Y-0.24100
X0.59800 Y-0.24100
X0.59800 Y-0.24200
X0.59700 Y-0.24200
X0.59700 Y-0.24300
X0.59600 Y-0.24300
X0.59600 Y-0.24400
X0.59500 Y-0.24400
X0.59500 Y-0.24500
X0.59400 Y-0.24500
X0.59400 Y-0.24600
X0.59300 Y-0.24600
X0.59300 Y-0.24700
X0.59200 Y-0.24700
X0.59200 Y-0.24800
X0.59100 Y-0.24800
X0.59100 Y-0.24900
X0.59000 Y-0.24900
X0.59000 Y-0.25000
X0.58900 Y-0.25000
X0.58900 Y-0.25100
X0.58800 Y-0.25100
X0.58800 Y-0.25200
X0.58700 Y-0.25200
X0.58700 Y-0.25300
X0.58600 Y-0.25300
X0.58600 Y-0.25400
X0.58500 Y-0.25400
X0.58500 Y-0.25500
X0.58400 Y-0.25500
X0.58400 Y-0.25600
X0.58300 Y-0.25600
X0.58300 Y-0.25700
X0.58200 Y-0.25700
X0.58200 Y-0.25800
X0.58100 Y-0.25800
X0.58100 Y-0.25900
X0.58000 Y-0.25900
X0.58000 Y-0.26000
X0.57900 Y-0.26000
X0.57900 Y-0.26100
X0.57800 Y-0.26100
X0.57800 Y-0.26200
X0.57700 Y-0.26200
X0.57700 Y-0.26300
X0.57600 Y-0.26300
X0.57600 Y-0.26400
X0.57500 Y-0.26400
X0.57500 Y-0.26500
X0.57400 Y-0.26500
X0.57400 Y-0.26600
X0.57300 Y-0.26600
X0.57300 Y-0.26700
X0.57200 Y-0.26700
X0.57200 Y-0.26800
X0.57100 Y-0.26800
X0.57100 Y-0.26900
X0.57000 Y-0.26900
X0.57000 Y-0.27000
X0.56900 Y-0.27000
X0.56900 Y-0.27100
X0.56800 Y-0.27100
X0.56800 Y-0.27200
X0.56700 Y-0.27200
X0.56700 Y-0.27300
X0.56600 Y-0.27300
X0.56600 Y-0.27400
X0.56500 Y-0.27400
X0.56500 Y-0.27500
X0.56400 Y-0.27500
X0.56400 Y-0.27600
X0.56300 Y-0.27600
X0.56300 Y-0.27700
X0.56200 Y-0.27700
X0.56200 Y-0.27800
X0.56100 Y-0.27800
X0.56100 Y-0.27900
X0.56000 Y-0.27900
X0.56000 Y-0.28000
X0.55900 Y-0.28000
X0.55900 Y-0.28100
X0.55800 Y-0.28100
X0.55800 Y-0.28200
X0.55700 Y-0.28200
X0.55700 Y-0.28300
X0.55600 Y-0.28300
X0.55600 Y-0.28400
X0.55500 Y-0.28400
X0.55500 Y-0.28500
X0.55400 Y-0.28500
X0.55400 Y-0.28600
X0.55300 Y-0.28600
X0.55300 Y-0.28700
X0.55200 Y-0.28700
X0.55200 Y-0.28800
X0.55100 Y-0.28800
X0.55100 Y-0.28900
X0.55000 Y-0.28900
X0.55000 Y-0.29000
X0.54900 Y-0.29000
X0.54900 Y-0.29100
X0.54800 Y-0.29100
X0.54800 Y-0.29200
X0.54700 Y-0.29200
X0.54700 Y-0.29300
X0.54600 Y-0.29300
X0.54600 Y-0.29400
X0.54500 Y-0.29400
X0.54500 Y-0.29500
X0.54400 Y-0.29500
X0.54400 Y-0.29600
X0.54300 Y-0.29600
X0.54300 Y-0.29700
X0.54200 Y-0.29700
X0.54200 Y-0.29800
X0.54100 Y-0.29800
X0.54100 Y-0.29900
X0.54000 Y-0.29900
X0.54000 Y-0.30000
X0.53900 Y-0.30000
X0.53900 Y-0.30100
X0.53800 Y-0.30100
X0.53800 Y-0.30200
X0.53700 Y-0.30200
X0.53700 Y-0.30300
X0.53600 Y-0.30300
X0.53600 Y-0.30400
X0.53500 Y-0.30400
X0.53500 Y-0.30500
X0.53400 Y-0.30500
X0.53400 Y-0.30600
X0.53300 Y-0.30600
X0.53300 Y-0.30700
X0.53200 Y-0.30700
X0.53200 Y-0.30800
X0.53100 Y-0.30800
X0.53100 Y-0.30900
X0.53000 Y-0.30900
X0.53000 Y-0.31000
X0.52900 Y-0.31000
X0.52900 Y-0.31100
X0.52800 Y-0.31100
X0.52800 Y-0.31200
X0.52700 Y-0.31200
X0.52700 Y-0.31300
X0.52600 Y-0.31300
X0.52600 Y-0.31400
X0.52500 Y-0.31400
X0.52500 Y-0.31500
X0.52400 Y-0.31500
X0.52400 Y-0.31600
X0.52300 Y-0.31600
X0.52300 Y-0.31700
X0.52200 Y-0.31700
X0.52200 Y-0.31800
X0.52100 Y-0.31800
X0.52100 Y-0.31900
X0.52000 Y-0.31900
X0.52000 Y-0.32000
X0.51900 Y-0.32000
X0.51900 Y-0.32100
X0.51700 Y-0.32100
X0.51700 Y-0.32200
X0.45900 Y-0.32200
X0.45900 Y-0.37500
X0.32000 Y-0.37500
X0.32000 Y-0.27100
X0.45900 Y-0.27100
X0.45900 Y-0.27800
X0.48300 Y-0.27800
X0.48300 Y-0.27700
X0.48400 Y-0.27700
X0.48400 Y-0.27600
X0.48500 Y-0.27600
X0.48500 Y-0.27500
X0.48600 Y-0.27500
X0.48600 Y-0.27400
X0.48700 Y-0.27400
X0.48700 Y-0.27300
X0.48800 Y-0.27300
X0.48800 Y-0.27200
X0.48900 Y-0.27200
X0.48900 Y-0.27100
X0.49000 Y-0.27100
X0.49000 Y-0.27000
X0.49100 Y-0.27000
X0.49100 Y-0.26900
X0.49200 Y-0.26900
X0.49200 Y-0.26800
X0.49300 Y-0.26800
X0.49300 Y-0.26700
X0.49400 Y-0.26700
X0.49400 Y-0.26600
X0.49500 Y-0.26600
X0.49500 Y-0.26500
X0.49600 Y-0.26500
X0.49600 Y-0.26400
X0.49700 Y-0.26400
X0.49700 Y-0.26300
X0.49800 Y-0.26300
X0.49800 Y-0.26200
X0.49900 Y-0.26200
X0.49900 Y-0.26100
X0.50000 Y-0.26100
X0.50000 Y-0.26000
X0.50100 Y-0.26000
X0.50100 Y-0.25900
X0.50200 Y-0.25900
X0.50200 Y-0.25800
X0.50300 Y-0.25800
X0.50300 Y-0.25700
X0.50400 Y-0.25700
X0.50400 Y-0.25600
X0.50500 Y-0.25600
X0.50500 Y-0.25500
X0.50600 Y-0.25500
X0.50600 Y-0.25400
X0.50700 Y-0.25400
X0.50700 Y-0.25300
X0.50800 Y-0.25300
X0.50800 Y-0.25200
X0.50900 Y-0.25200
X0.50900 Y-0.25100
X0.51000 Y-0.25100
X0.51000 Y-0.25000
X0.51100 Y-0.25000
X0.51100 Y-0.24900
X0.51200 Y-0.24900
X0.51200 Y-0.24800
X0.51300 Y-0.24800
X0.51300 Y-0.24700
X0.51400 Y-0.24700
X0.51400 Y-0.24600
X0.51500 Y-0.24600
X0.51500 Y-0.24500
X0.51600 Y-0.24500
X0.51600 Y-0.24400
X0.51700 Y-0.24400
X0.51700 Y-0.24300
X0.51800 Y-0.24300
X0.51800 Y-0.24200
X0.51900 Y-0.24200
X0.51900 Y-0.24100
X0.52000 Y-0.24100
X0.52000 Y-0.24000
X0.52100 Y-0.24000
X0.52100 Y-0.23900
X0.52200 Y-0.23900
X0.52200 Y-0.23800
X0.52300 Y-0.23800
X0.52300 Y-0.23700
X0.52400 Y-0.23700
X0.52400 Y-0.23600
X0.52500 Y-0.23600
X0.52500 Y-0.23500
X0.52600 Y-0.23500
X0.52600 Y-0.23400
X0.52700 Y-0.23400
X0.52700 Y-0.23300
X0.52800 Y-0.23300
X0.52800 Y-0.23200
X0.52900 Y-0.23200
X0.52900 Y-0.23100
X0.53000 Y-0.23100
X0.53000 Y-0.23000
X0.53100 Y-0.23000
X0.53100 Y-0.22900
X0.53200 Y-0.22900
X0.53200 Y-0.22800
X0.53300 Y-0.22800
X0.53300 Y-0.22700
X0.53400 Y-0.22700
X0.53400 Y-0.22600
X0.53500 Y-0.22600
X0.53500 Y-0.22500
X0.53600 Y-0.22500
X0.53600 Y-0.22400
X0.53700 Y-0.22400
X0.53700 Y-0.22300
X0.53800 Y-0.22300
X0.53800 Y-0.22200
X0.53900 Y-0.22200
X0.53900 Y-0.22100
X0.54000 Y-0.22100
X0.54000 Y-0.22000
X0.54100 Y-0.22000
X0.54100 Y-0.21900
X0.54200 Y-0.21900
X0.54200 Y-0.21800
X0.54300 Y-0.21800
X0.54300 Y-0.21700
X0.54400 Y-0.21700
X0.54400 Y-0.21600
X0.54500 Y-0.21600
X0.54500 Y-0.21500
X0.54600 Y-0.21500
X0.54600 Y-0.21400
X0.54700 Y-0.21400
X0.54700 Y-0.21300
X0.54800 Y-0.21300
X0.54800 Y-0.21200
X0.54900 Y-0.21200
X0.54900 Y-0.21100
X0.55000 Y-0.21100
X0.55000 Y-0.21000
X0.55100 Y-0.21000
X0.55100 Y-0.20900
X0.55200 Y-0.20900
X0.55200 Y-0.20800
X0.55300 Y-0.20800
X0.55300 Y-0.20700
X0.55400 Y-0.20700
X0.55400 Y-0.20600
X0.55500 Y-0.20600
X0.55500 Y-0.20500
X0.55600 Y-0.20500
X0.55600 Y-0.20400
X0.55700 Y-0.20400
X0.55700 Y-0.20300
X0.55800 Y-0.20300
X0.55800 Y-0.20200
X0.55900 Y-0.20200
X0.55900 Y-0.20100
X0.56000 Y-0.20100
X0.56000 Y-0.20000
X0.56100 Y-0.20000
X0.56100 Y-0.19900
X0.56200 Y-0.19900
X0.56200 Y-0.19800
X0.56300 Y-0.19800
X0.56300 Y-0.19700
X0.56400 Y-0.19700
X0.56400 Y-0.19600
X0.56500 Y-0.19600
X0.56500 Y-0.19500
X0.56600 Y-0.19500
X0.56600 Y-0.19400
X0.56700 Y-0.19400
X0.56700 Y-0.19300
X0.56800 Y-0.19300
X0.56800 Y-0.19200
X0.56900 Y-0.19200
X0.56900 Y-0.19100
X0.57000 Y-0.19100
X0.57000 Y-0.19000
X0.57100 Y-0.19000
X0.57100 Y-0.18900
X0.57200 Y-0.18900
X0.57200 Y-0.18800
X0.57300 Y-0.18800
X0.57300 Y-0.18700
X0.57400 Y-0.18700
X0.57400 Y-0.18600
X0.57500 Y-0.18600
X0.57500 Y-0.18500
X0.57600 Y-0.18500
X0.57600 Y-0.18400
X0.57700 Y-0.18400
X0.57700 Y-0.18300
X0.57800 Y-0.18300
X0.57800 Y-0.18200
X0.57900 Y-0.18200
X0.57900 Y-0.18100
X0.58000 Y-0.18100
X0.58000 Y-0.18000
X0.58100 Y-0.18000
X0.58100 Y-0.17900
X0.58200 Y-0.17900
X0.58200 Y-0.17800
X0.58300 Y-0.17800
X0.58300 Y-0.17700
X0.58400 Y-0.17700
X0.58400 Y-0.17600
X0.58500 Y-0.17600
X0.58500 Y-0.17500
X0.58600 Y-0.17500
X0.58600 Y-0.17400
X0.58700 Y-0.17400
X0.58700 Y-0.17300
X0.58800 Y-0.17300
X0.58800 Y-0.17200
X0.58900 Y-0.17200
X0.58900 Y-0.17100
X0.59000 Y-0.17100
X0.59000 Y-0.17000
X0.59100 Y-0.17000
X0.59100 Y-0.16900
X0.59200 Y-0.16900
X0.59200 Y-0.16800
X0.59300 Y-0.16800
X0.59300 Y-0.16700
X0.59400 Y-0.16700
X0.59400 Y-0.16600
X0.59500 Y-0.16600
X0.59500 Y-0.16500
X0.59600 Y-0.16500
X0.59600 Y-0.16400
X0.59700 Y-0.16400
X0.59700 Y-0.16300
X0.59800 Y-0.16300
X0.59800 Y-0.16200
X0.59900 Y-0.16200
X0.59900 Y-0.16100
X0.60000 Y-0.16100
X0.60000 Y-0.16000
X0.60100 Y-0.16000
X0.60100 Y-0.15900
X0.60200 Y-0.15900
X0.60200 Y-0.15800
X0.60300 Y-0.15800
X0.60300 Y-0.15700
X0.60400 Y-0.15700
X0.60400 Y-0.15600
X0.60500 Y-0.15600
X0.60500 Y-0.15500
X0.60600 Y-0.15500
X0.60600 Y-0.15400
X0.60700 Y-0.15400
X0.60700 Y-0.15300
X0.60800 Y-0.15300
X0.60800 Y-0.15200
X0.60900 Y-0.15200
X0.60900 Y-0.15100
X0.61000 Y-0.15100
X0.61000 Y-0.15000
X0.61100 Y-0.15000
X0.61100 Y-0.14900
X0.61200 Y-0.14900
X0.61200 Y-0.14800
X0.61300 Y-0.14800
X0.61300 Y-0.14700
X0.61400 Y-0.14700
X0.61400 Y-0.14600
X0.61500 Y-0.14600
X0.61500 Y-0.14500
X0.61600 Y-0.14500
X0.61600 Y-0.14400
X0.61700 Y-0.14400
X0.61700 Y-0.14300
X0.61800 Y-0.14300
X0.61800 Y-0.14200
X0.61900 Y-0.14200
X0.61900 Y-0.14100
X0.62000 Y-0.14100
X0.62000 Y-0.14000
X0.62100 Y-0.14000
X0.62100 Y-0.13900
X0.62200 Y-0.13900
X0.62200 Y-0.13800
X0.62300 Y-0.13800
X0.62300 Y-0.13700
X0.62400 Y-0.13700
X0.62400 Y-0.13600
X0.62500 Y-0.13600
X0.62500 Y-0.13500
X0.62600 Y-0.13500
X0.62600 Y-0.13400
X0.62700 Y-0.13400
X0.62700 Y-0.13300
X0.62800 Y-0.13300
X0.62800 Y-0.13200
X0.62900 Y-0.13200
X0.62900 Y-0.13100
X0.63000 Y-0.13100
X0.63000 Y-0.13000
X0.63100 Y-0.13000
X0.63100 Y-0.12900
X0.63200 Y-0.12900
X0.63200 Y-0.12800
X0.63300 Y-0.12800
X0.63300 Y-0.12700
X0.63400 Y-0.12700
X0.63400 Y-0.12600
X0.63500 Y-0.12600
X0.63500 Y-0.12500
X0.63600 Y-0.12500
X0.63600 Y-0.12400
X0.63700 Y-0.12400
X0.63700 Y-0.12300
X0.63800 Y-0.12300
X0.63800 Y-0.12200
X0.63900 Y-0.12200
X0.63900 Y-0.12100
X0.64000 Y-0.12100
X0.64000 Y-0.12000
X0.64100 Y-0.12000
X0.64100 Y-0.11900
X0.64200 Y-0.11900
X0.64200 Y-0.11800
X0.64300 Y-0.11800
X0.64300 Y-0.11700
X0.64400 Y-0.11700
X0.64400 Y-0.11600
X0.64500 Y-0.11600
X0.64500 Y-0.05100
X0.75400 Y-0.05100
X0.75400 Y-0.06600
G04 P0 ( dwell for no time -- G64 should not smooth over this point )
G00 Z0.02000 ( retract )

G00 X0.74800 Y-0.16600 ( rapid move to begin. )
G01 Z-0.00300 F4.75000 ( plunge. )
G04 P0 ( dwell for no time -- G64 should not smooth over this point )
X0.74800 Y-0.16600
X0.74800 Y-0.16700
X0.74900 Y-0.16700
X0.74900 Y-0.16800
X0.75000 Y-0.16800
X0.75000 Y-0.17000
X0.75100 Y-0.17000
X0.75100 Y-0.17200
X0.75200 Y-0.17200
X0.75200 Y-0.17600
X0.75300 Y-0.17600
X0.75300 Y-0.18200
X0.75400 Y-0.18200
X0.75400 Y-0.21700
X0.75300 Y-0.21700
X0.75300 Y-0.22300
X0.75200 Y-0.22300
X0.75200 Y-0.22700
X0.75100 Y-0.22700
X0.75100 Y-0.22900
X0.75000 Y-0.22900
X0.75000 Y-0.23100
X0.74900 Y-0.23100
X0.74900 Y-0.23200
X0.74800 Y-0.23200
X0.74800 Y-0.23400
X0.74700 Y-0.23400
X0.74700 Y-0.23600
X0.74600 Y-0.23600
X0.74600 Y-0.23700
X0.74500 Y-0.23700
X0.74500 Y-0.23800
X0.74400 Y-0.23800
X0.74400 Y-0.23900
X0.74300 Y-0.23900
X0.74300 Y-0.24000
X0.74100 Y-0.24000
X0.74100 Y-0.24100
X0.74000 Y-0.24100
X0.74000 Y-0.24200
X0.73800 Y-0.24200
X0.73800 Y-0.24300
X0.73700 Y-0.24300
X0.73700 Y-0.24400
X0.73600 Y-0.24400
X0.73600 Y-0.24500
X0.73400 Y-0.24500
X0.73400 Y-0.24600
X0.73000 Y-0.24600
X0.73000 Y-0.24700
X0.72500 Y-0.24700
X0.72500 Y-0.24800
X0.67400 Y-0.24800
X0.67400 Y-0.24700
X0.66900 Y-0.24700
X0.66900 Y-0.24600
X0.66500 Y-0.24600
X0.66500 Y-0.24500
X0.66300 Y-0.24500
X0.66300 Y-0.24400
X0.66200 Y-0.24400
X0.66200 Y-0.24300
X0.66100 Y-0.24300
X0.66100 Y-0.24200
X0.65900 Y-0.24200
X0.65900 Y-0.24100
X0.65800 Y-0.24100
X0.65800 Y-0.24000
X0.65600 Y-0.24000
X0.65600 Y-0.23900
X0.65500 Y-0.23900
X0.65500 Y-0.23800
X0.65400 Y-0.23800
X0.65400 Y-0.23700
X0.65300 Y-0.23700
X0.65300 Y-0.23600
X0.65200 Y-0.23600
X0.65200 Y-0.23400
X0.65100 Y-0.23400
X0.65100 Y-0.23200
X0.65000 Y-0.23200
X0.65000 Y-0.23100
X0.64900 Y-0.23100
X0.64900 Y-0.22900
X0.64800 Y-0.22900
X0.64800 Y-0.22700
X0.64700 Y-0.22700
X0.64700 Y-0.22300
X0.64600 Y-0.22300
X0.64600 Y-0.21700
X0.64500 Y-0.21700
X0.64500 Y-0.19400
X0.64600 Y-0.19400
X0.64600 Y-0.19100
X0.64700 Y-0.19100
X0.64700 Y-0.18800
X0.64800 Y-0.18800
X0.64800 Y-0.18500
X0.64900 Y-0.18500
X0.64900 Y-0.18400
X0.65000 Y-0.18400
X0.65000 Y-0.18100
X0.65100 Y-0.18100
X0.65100 Y-0.18000
X0.65200 Y-0.18000
X0.65200 Y-0.17700
X0.65300 Y-0.17700
X0.65300 Y-0.17600
X0.65400 Y-0.17600
X0.65400 Y-0.17500
X0.65500 Y-0.17500
X0.65500 Y-0.17400
X0.65600 Y-0.17400
X0.65600 Y-0.17300
X0.65700 Y-0.17300
X0.65700 Y-0.17100
X0.65800 Y-0.17100
X0.65800 Y-0.16900
X0.65900 Y-0.16900
X0.65900 Y-0.16800
X0.66000 Y-0.16800
X0.66000 Y-0.16700
X0.66100 Y-0.16700
X0.66100 Y-0.16600
X0.66200 Y-0.16600
X0.66200 Y-0.16500
X0.66400 Y-0.16500
X0.66400 Y-0.16400
X0.66500 Y-0.16400
X0.66500 Y-0.16300
X0.66700 Y-0.16300
X0.66700 Y-0.16200
X0.66800 Y-0.16200
X0.66800 Y-0.16100
X0.66900 Y-0.16100
X0.66900 Y-0.16000
X0.67000 Y-0.16000
X0.67000 Y-0.15900
X0.67100 Y-0.15900
X0.67100 Y-0.15800
X0.67400 Y-0.15800
X0.67400 Y-0.15700
X0.67500 Y-0.15700
X0.67500 Y-0.15600
X0.67800 Y-0.15600
X0.67800 Y-0.15500
X0.67900 Y-0.15500
X0.67900 Y-0.15400
X0.68200 Y-0.15400
X0.68200 Y-0.15300
X0.68500 Y-0.15300
X0.68500 Y-0.15200
X0.68800 Y-0.15200
X0.68800 Y-0.15100
X0.72500 Y-0.15100
X0.72500 Y-0.15200
X0.73000 Y-0.15200
X0.73000 Y-0.15300
X0.73400 Y-0.15300
X0.73400 Y-0.15400
X0.73600 Y-0.15400
X0.73600 Y-0.15500
X0.73700 Y-0.15500
X0.73700 Y-0.15600
X0.73800 Y-0.15600
X0.73800 Y-0.15700
X0.74000 Y-0.15700
X0.74000 Y-0.15800
X0.74100 Y-0.15800
X0.74100 Y-0.15900
X0.74300 Y-0.15900
X0.74300 Y-0.16000
X0.74400 Y-0.16000
X0.74400 Y-0.16100
X0.74500 Y-0.16100
X0.74500 Y-0.16200
X0.74600 Y-0.16200
X0.74600 Y-0.16300
X0.74700 Y-0.16300
X0.74700 Y-0.16500
X0.74800 Y-0.16500
X0.74800 Y-0.16600
G04 P0 ( dwell for no time -- G64 should not smooth over this point )
G00 Z0.02000 ( retract )

G00 X0.29900 Y-0.18600 ( rapid move to begin. )
G01 Z-0.00300 F4.75000 ( plunge. )
G04 P0 ( dwell for no time -- G64 should not smooth over this point )
X0.29900 Y-0.18600
X0.29900 Y-0.22500
X0.16000 Y-0.22500
X0.16000 Y-0.17100
X0.29900 Y-0.17100
X0.29900 Y-0.18600
G04 P0 ( dwell for no time -- G64 should not smooth over this point )
G00 Z0.02000 ( retract )

G00 X0.45900 Y-0.18600 ( rapid move to begin. )
G01 Z-0.00300 F4.75000 ( plunge. )
G04 P0 ( dwell for no time -- G64 should not smooth over this point )
X0.45900 Y-0.18600
X0.45900 Y-0.22800
X0.32000 Y-0.22800
X0.32000 Y-0.17100
X0.45900 Y-0.17100
X0.45900 Y-0.18600
G04 P0 ( dwell for no time -- G64 should not smooth over this point )
G00 Z0.02000 ( retract )

G00 X0.29900 Y-0.23600 ( rapid move to begin. )
G01 Z-0.00300 F4.75000 ( plunge. )
G04 P0 ( dwell for no time -- G64 should not smooth over this point )
X0.29900 Y-0.23600
X0.29900 Y-0.27500
X0.16000 Y-0.27500
X0.16000 Y-0.22500
X0.29900 Y-0.22500
X0.29900 Y-0.23600
G04 P0 ( dwell for no time -- G64 should not smooth over this point )
G00 Z0.02000 ( retract )

G00 X0.74800 Y-0.26600 ( rapid move to begin. )
G01 Z-0.00300 F4.75000 ( plunge. )
G04 P0 ( dwell for no time -- G64 should not smooth over this point )
X0.74800 Y-0.26600
X0.74800 Y-0.26700
X0.74900 Y-0.26700
X0.74900 Y-0.26800
X0.75000 Y-0.26800
X0.75000 Y-0.27000
X0.75100 Y-0.27000
X0.75100 Y-0.27200
X0.75200 Y-0.27200
X0.75200 Y-0.27600
X0.75300 Y-0.27600
X0.75300 Y-0.28200
X0.75400 Y-0.28200
X0.75400 Y-0.31700
X0.75300 Y-0.31700
X0.75300 Y-0.32300
X0.75200 Y-0.32300
X0.75200 Y-0.32700
X0.75100 Y-0.32700
X0.75100 Y-0.32900
X0.75000 Y-0.32900
X0.75000 Y-0.33100
X0.74900 Y-0.33100
X0.74900 Y-0.33200
X0.74800 Y-0.33200
X0.74800 Y-0.33400
X0.74700 Y-0.33400
X0.74700 Y-0.33600
X0.74600 Y-0.33600
X0.74600 Y-0.33700
X0.74500 Y-0.33700
X0.74500 Y-0.33800
X0.74400 Y-0.33800
X0.74400 Y-0.33900
X0.74300 Y-0.33900
X0.74300 Y-0.34000
X0.74100 Y-0.34000
X0.74100 Y-0.34100
X0.74000 Y-0.34100
X0.74000 Y-0.34200
X0.73800 Y-0.34200
X0.73800 Y-0.34300
X0.73700 Y-0.34300
X0.73700 Y-0.34400
X0.73600 Y-0.34400
X0.73600 Y-0.34500
X0.73400 Y-0.34500
X0.73400 Y-0.34600
X0.73000 Y-0.34600
X0.73000 Y-0.34700
X0.72500 Y-0.34700
X0.72500 Y-0.34800
X0.67400 Y-0.34800
X0.67400 Y-0.34700
X0.66900 Y-0.34700
X0.66900 Y-0.34600
X0.66500 Y-0.34600
X0.66500 Y-0.34500
X0.66300 Y-0.34500
X0.66300 Y-0.34400
X0.66200 Y-0.34400
X0.66200 Y-0.34300
X0.66100 Y-0.34300
X0.66100 Y-0.34200
X0.65900 Y-0.34200
X0.65900 Y-0.34100
X0.65800 Y-0.34100
X0.65800 Y-0.34000
X0.65600 Y-0.34000
X0.65600 Y-0.33900
X0.65500 Y-0.33900
X0.65500 Y-0.33800
X0.65400 Y-0.33800
X0.65400 Y-0.33700
X0.65300 Y-0.33700
X0.65300 Y-0.33600
X0.65200 Y-0.33600
X0.65200 Y-0.33400
X0.65100 Y-0.33400
X0.65100 Y-0.33200
X0.65000 Y-0.33200
X0.65000 Y-0.33100
X0.64900 Y-0.33100
X0.64900 Y-0.33100
X0.64800 Y-0.33100
X0.64800 Y-0.33200
X0.64700 Y-0.33200
X0.64700 Y-0.33300
X0.64600 Y-0.33300
X0.64600 Y-0.33400
X0.64500 Y-0.33400
X0.64500 Y-0.33500
X0.64400 Y-0.33500
X0.64400 Y-0.33600
X0.64300 Y-0.33600
X0.64300 Y-0.33700
X0.64200 Y-0.33700
X0.64200 Y-0.33800
X0.64100 Y-0.33800
X0.64100 Y-0.33900
X0.64000 Y-0.33900
X0.64000 Y-0.34000
X0.63900 Y-0.34000
X0.63900 Y-0.34100
X0.63800 Y-0.34100
X0.63800 Y-0.34200
X0.63700 Y-0.34200
X0.63700 Y-0.34300
X0.63600 Y-0.34300
X0.63600 Y-0.34400
X0.63500 Y-0.34400
X0.63500 Y-0.34500
X0.63400 Y-0.34500
X0.63400 Y-0.34600
X0.63300 Y-0.34600
X0.63300 Y-0.34700
X0.63200 Y-0.34700
X0.63200 Y-0.34800
X0.63100 Y-0.34800
X0.63100 Y-0.34900
X0.63000 Y-0.34900
X0.63000 Y-0.35000
X0.62900 Y-0.35000
X0.62900 Y-0.35100
X0.62800 Y-0.35100
X0.62800 Y-0.35200
X0.62700 Y-0.35200
X0.62700 Y-0.35300
X0.62600 Y-0.35300
X0.62600 Y-0.35400
X0.62500 Y-0.35400
X0.62500 Y-0.35500
X0.62400 Y-0.35500
X0.62400 Y-0.35600
X0.62300 Y-0.35600
X0.62300 Y-0.35700
X0.62200 Y-0.35700
X0.62200 Y-0.35800
X0.62100 Y-0.35800
X0.62100 Y-0.35900
X0.62000 Y-0.35900
X0.62000 Y-0.36000
X0.61900 Y-0.36000
X0.61900 Y-0.36100
X0.61800 Y-0.36100
X0.61800 Y-0.36200
X0.61700 Y-0.36200
X0.61700 Y-0.36300
X0.61600 Y-0.36300
X0.61600 Y-0.36400
X0.61500 Y-0.36400
X0.61500 Y-0.36500
X0.61400 Y-0.36500
X0.61400 Y-0.36600
X0.61300 Y-0.36600
X0.61300 Y-0.36700
X0.61200 Y-0.36700
X0.61200 Y-0.36800
X0.61100 Y-0.36800
X0.61100 Y-0.36900
X0.61000 Y-0.36900
X0.61000 Y-0.37000
X0.60900 Y-0.37000
X0.60900 Y-0.37100
X0.60800 Y-0.37100
X0.60800 Y-0.37200
X0.60700 Y-0.37200
X0.60700 Y-0.37300
X0.60600 Y-0.37300
X0.60600 Y-0.37400
X0.60500 Y-0.37400
X0.60500 Y-0.37500
X0.60400 Y-0.37500
X0.60400 Y-0.37600
X0.60300 Y-0.37600
X0.60300 Y-0.37700
X0.60200 Y-0.37700
X0.60200 Y-0.37800
X0.60100 Y-0.37800
X0.60100 Y-0.37900
X0.60000 Y-0.37900
X0.60000 Y-0.38000
X0.59900 Y-0.38000
X0.59900 Y-0.38100
X0.59800 Y-0.38100
X0.59800 Y-0.38200
X0.59700 Y-0.38200
X0.59700 Y-0.38300
X0.59600 Y-0.38300
X0.59600 Y-0.38400
X0.59500 Y-0.38400
X0.59500 Y-0.38500
X0.59400 Y-0.38500
X0.59400 Y-0.38600
X0.59300 Y-0.38600
X0.59300 Y-0.38700
X0.59200 Y-0.38700
X0.59200 Y-0.38800
X0.59100 Y-0.38800
X0.59100 Y-0.38900
X0.59000 Y-0.38900
X0.59000 Y-0.39000
X0.58900 Y-0.39000
X0.58900 Y-0.39100
X0.58800 Y-0.39100
X0.58800 Y-0.39200
X0.58700 Y-0.39200
X0.58700 Y-0.39300
X0.58600 Y-0.39300
X0.58600 Y-0.39400
X0.58500 Y-0.39400
X0.58500 Y-0.39500
X0.58400 Y-0.39500
X0.58400 Y-0.39600
X0.58300 Y-0.39600
X0.58300 Y-0.39700
X0.58200 Y-0.39700
X0.58200 Y-0.39800
X0.58100 Y-0.39800
X0.58100 Y-0.39900
X0.58000 Y-0.39900
X0.58000 Y-0.40000
X0.57900 Y-0.40000
X0.57900 Y-0.40100
X0.57800 Y-0.40100
X0.57800 Y-0.40200
X0.57700 Y-0.40200
X0.57700 Y-0.40300
X0.57600 Y-0.40300
X0.57600 Y-0.40400
X0.57500 Y-0.40400
X0.57500 Y-0.40500
X0.57400 Y-0.40500
X0.57400 Y-0.40600
X0.57300 Y-0.40600
X0.57300 Y-0.40700
X0.57200 Y-0.40700
X0.57200 Y-0.40800
X0.57100 Y-0.40800
X0.57100 Y-0.40900
X0.57000 Y-0.40900
X0.57000 Y-0.41000
X0.56900 Y-0.41000
X0.56900 Y-0.41100
X0.56800 Y-0.41100
X0.56800 Y-0.41200
X0.56700 Y-0.41200
X0.56700 Y-0.41300
X0.56600 Y-0.41300
X0.56600 Y-0.41400
X0.56500 Y-0.41400
X0.56500 Y-0.41500
X0.56400 Y-0.41500
X0.56400 Y-0.41600
X0.56300 Y-0.41600
X0.56300 Y-0.41700
X0.56200 Y-0.41700
X0.56200 Y-0.41800
X0.56100 Y-0.41800
X0.56100 Y-0.41900
X0.56000 Y-0.41900
X0.56000 Y-0.42000
X0.55900 Y-0.42000
X0.55900 Y-0.42100
X0.55700 Y-0.42100
X0.55700 Y-0.42200
X0.45900 Y-0.42200
X0.45900 Y-0.42800
X0.32000 Y-0.42800
X0.32000 Y-0.37500
X0.45900 Y-0.37500
X0.45900 Y-0.37800
X0.52300 Y-0.37800
X0.52300 Y-0.37700
X0.52400 Y-0.37700
X0.52400 Y-0.37600
X0.52500 Y-0.37600
X0.52500 Y-0.37500
X0.52600 Y-0.37500
X0.52600 Y-0.37400
X0.52700 Y-0.37400
X0.52700 Y-0.37300
X0.52800 Y-0.37300
X0.52800 Y-0.37200
X0.52900 Y-0.37200
X0.52900 Y-0.37100
X0.53000 Y-0.37100
X0.53000 Y-0.37000
X0.53100 Y-0.37000
X0.53100 Y-0.36900
X0.53200 Y-0.36900
X0.53200 Y-0.36800
X0.53300 Y-0.36800
X0.53300 Y-0.36700
X0.53400 Y-0.36700
X0.53400 Y-0.36600
X0.53500 Y-0.36600
X0.53500 Y-0.36500
X0.53600 Y-0.36500
X0.53600 Y-0.36400
X0.53700 Y-0.36400
X0.53700 Y-0.36300
X0.53800 Y-0.36300
X0.53800 Y-0.36200
X0.53900 Y-0.36200
X0.53900 Y-0.36100
X0.54000 Y-0.36100
X0.54000 Y-0.36000
X0.54100 Y-0.36000
X0.54100 Y-0.35900
X0.54200 Y-0.35900
X0.54200 Y-0.35800
X0.54300 Y-0.35800
X0.54300 Y-0.35700
X0.54400 Y-0.35700
X0.54400 Y-0.35600
X0.54500 Y-0.35600
X0.54500 Y-0.35500
X0.54600 Y-0.35500
X0.54600 Y-0.35400
X0.54700 Y-0.35400
X0.54700 Y-0.35300
X0.54800 Y-0.35300
X0.54800 Y-0.35200
X0.54900 Y-0.35200
X0.54900 Y-0.35100
X0.55000 Y-0.35100
X0.55000 Y-0.35000
X0.55100 Y-0.35000
X0.55100 Y-0.34900
X0.55200 Y-0.34900
X0.55200 Y-0.34800
X0.55300 Y-0.34800
X0.55300 Y-0.34700
X0.55400 Y-0.34700
X0.55400 Y-0.34600
X0.55500 Y-0.34600
X0.55500 Y-0.34500
X0.55600 Y-0.34500
X0.55600 Y-0.34400
X0.55700 Y-0.34400
X0.55700 Y-0.34300
X0.55800 Y-0.34300
X0.55800 Y-0.34200
X0.55900 Y-0.34200
X0.55900 Y-0.34100
X0.56000 Y-0.34100
X0.56000 Y-0.34000
X0.56100 Y-0.34000
X0.56100 Y-0.33900
X0.56200 Y-0.33900
X0.56200 Y-0.33800
X0.56300 Y-0.33800
X0.56300 Y-0.33700
X0.56400 Y-0.33700
X0.56400 Y-0.33600
X0.56500 Y-0.33600
X0.56500 Y-0.33500
X0.56600 Y-0.33500
X0.56600 Y-0.33400
X0.56700 Y-0.33400
X0.56700 Y-0.33300
X0.56800 Y-0.33300
X0.56800 Y-0.33200
X0.56900 Y-0.33200
X0.56900 Y-0.33100
X0.57000 Y-0.33100
X0.57000 Y-0.33000
X0.57100 Y-0.33000
X0.57100 Y-0.32900
X0.57200 Y-0.32900
X0.57200 Y-0.32800
X0.57300 Y-0.32800
X0.57300 Y-0.32700
X0.57400 Y-0.32700
X0.57400 Y-0.32600
X0.57500 Y-0.32600
X0.57500 Y-0.32500
X0.57600 Y-0.32500
X0.57600 Y-0.32400
X0.57700 Y-0.32400
X0.57700 Y-0.32300
X0.57800 Y-0.32300
X0.57800 Y-0.32200
X0.57900 Y-0.32200
X0.57900 Y-0.32100
X0.58000 Y-0.32100
X0.58000 Y-0.32000
X0.58100 Y-0.32000
X0.58100 Y-0.31900
X0.58200 Y-0.31900
X0.58200 Y-0.31800
X0.58300 Y-0.31800
X0.58300 Y-0.31700
X0.58400 Y-0.31700
X0.58400 Y-0.31600
X0.58500 Y-0.31600
X0.58500 Y-0.31500
X0.58600 Y-0.31500
X0.58600 Y-0.31400
X0.58700 Y-0.31400
X0.58700 Y-0.31300
X0.58800 Y-0.31300
X0.58800 Y-0.31200
X0.58900 Y-0.31200
X0.58900 Y-0.31100
X0.59000 Y-0.31100
X0.59000 Y-0.31000
X0.59100 Y-0.31000
X0.59100 Y-0.30900
X0.59200 Y-0.30900
X0.59200 Y-0.30800
X0.59300 Y-0.30800
X0.59300 Y-0.30700
X0.59400 Y-0.30700
X0.59400 Y-0.30600
X0.59500 Y-0.30600
X0.59500 Y-0.30500
X0.59600 Y-0.30500
X0.59600 Y-0.30400
X0.59700 Y-0.30400
X0.59700 Y-0.30300
X0.59800 Y-0.30300
X0.59800 Y-0.30200
X0.59900 Y-0.30200
X0.59900 Y-0.30100
X0.60000 Y-0.30100
X0.60000 Y-0.30000
X0.60100 Y-0.30000
X0.60100 Y-0.29900
X0.60200 Y-0.29900
X0.60200 Y-0.29800
X0.60300 Y-0.29800
X0.60300 Y-0.29700
X0.60400 Y-0.29700
X0.60400 Y-0.29600
X0.60500 Y-0.29600
X0.60500 Y-0.29500
X0.60600 Y-0.29500
X0.60600 Y-0.29400
X0.60700 Y-0.29400
X0.60700 Y-0.29300
X0.60800 Y-0.29300
X0.60800 Y-0.29200
X0.60900 Y-0.29200
X0.60900 Y-0.29100
X0.61000 Y-0.29100
X0.61000 Y-0.29000
X0.61100 Y-0.29000
X0.61100 Y-0.28900
X0.61200 Y-0.28900
X0.61200 Y-0.28800
X0.61300 Y-0.28800
X0.61300 Y-0.28700
X0.61400 Y-0.28700
X0.61400 Y-0.28600
X0.61500 Y-0.28600
X0.61500 Y-0.28500
X0.61600 Y-0.28500
X0.61600 Y-0.28400
X0.61700 Y-0.28400
X0.61700 Y-0.28300
X0.61800 Y-0.28300
X0.61800 Y-0.28200
X0.61900 Y-0.28200
X0.61900 Y-0.28100
X0.62000 Y-0.28100
X0.62000 Y-0.28000
X0.62100 Y-0.28000
X0.62100 Y-0.27900
X0.62300 Y-0.27900
X0.62300 Y-0.27800
X0.64600 Y-0.27800
X0.64600 Y-0.27600
X0.64700 Y-0.27600
X0.64700 Y-0.27200
X0.64800 Y-0.27200
X0.64800 Y-0.27000
X0.64900 Y-0.27000
X0.64900 Y-0.26800
X0.65000 Y-0.26800
X0.65000 Y-0.26700
X0.65100 Y-0.26700
X0.65100 Y-0.26500
X0.65200 Y-0.26500
X0.65200 Y-0.26300
X0.65300 Y-0.26300
X0.65300 Y-0.26200
X0.65400 Y-0.26200
X0.65400 Y-0.26100
X0.65500 Y-0.26100
X0.65500 Y-0.26000
X0.65600 Y-0.26000
X0.65600 Y-0.25900
X0.65800 Y-0.25900
X0.65800 Y-0.25800
X0.65900 Y-0.25800
X0.65900 Y-0.25700
X0.66100 Y-0.25700
X0.66100 Y-0.25600
X0.66200 Y-0.25600
X0.66200 Y-0.25500
X0.66300 Y-0.25500
X0.66300 Y-0.25400
X0.66500 Y-0.25400
X0.66500 Y-0.25300
X0.66900 Y-0.25300
X0.66900 Y-0.25200
X0.67400 Y-0.25200
X0.67400 Y-0.25100
X0.72500 Y-0.25100
X0.72500 Y-0.25200
X0.73000 Y-0.25200
X0.73000 Y-0.25300
X0.73400 Y-0.25300
X0.73400 Y-0.25400
X0.73600 Y-0.25400
X0.73600 Y-0.25500
X0.73700 Y-0.25500
X0.73700 Y-0.25600
X0.73800 Y-0.25600
X0.73800 Y-0.25700
X0.74000 Y-0.25700
X0.74000 Y-0.25800
X0.74100 Y-0.25800
X0.74100 Y-0.25900
X0.74300 Y-0.25900
X0.74300 Y-0.26000
X0.74400 Y-0.26000
X0.74400 Y-0.26100
X0.74500 Y-0.26100
X0.74500 Y-0.26200
X0.74600 Y-0.26200
X0.74600 Y-0.26300
X0.74700 Y-0.26300
X0.74700 Y-0.26500
X0.74800 Y-0.26500
X0.74800 Y-0.26600
G04 P0 ( dwell for no time -- G64 should not smooth over this point )
G00 Z0.02000 ( retract )

G00 X0.29900 Y-0.28600 ( rapid move to begin. )
G01 Z-0.00300 F4.75000 ( plunge. )
G04 P0 ( dwell for no time -- G64 should not smooth over this point )
X0.29900 Y-0.28600
X0.29900 Y-0.32500
X0.16000 Y-0.32500
X0.16000 Y-0.27500
X0.29900 Y-0.27500
X0.29900 Y-0.28600
G04 P0 ( dwell for no time -- G64 should not smooth over this point )
G00 Z0.02000 ( retract )

G00 X0.29900 Y-0.33600 ( rapid move to begin. )
G01 Z-0.00300 F4.75000 ( plunge. )
G04 P0 ( dwell for no time -- G64 should not smooth over this point )
X0.29900 Y-0.33600
X0.29900 Y-0.37500
X0.16200 Y-0.37500
X0.16200 Y-0.37600
X0.16100 Y-0.37600
X0.16100 Y-0.37900
X0.16000 Y-0.37900
X0.16000 Y-0.38000
X0.15900 Y-0.38000
X0.15900 Y-0.38100
X0.15800 Y-0.38100
X0.15800 Y-0.38200
X0.15700 Y-0.38200
X0.15700 Y-0.38300
X0.15600 Y-0.38300
X0.15600 Y-0.38400
X0.15500 Y-0.38400
X0.15500 Y-0.38500
X0.15400 Y-0.38500
X0.15400 Y-0.38600
X0.15300 Y-0.38600
X0.15300 Y-0.38700
X0.15200 Y-0.38700
X0.15200 Y-0.42300
X0.15300 Y-0.42300
X0.15300 Y-0.42400
X0.15400 Y-0.42400
X0.15400 Y-0.42500
X0.15500 Y-0.42500
X0.15500 Y-0.42600
X0.15600 Y-0.42600
X0.15600 Y-0.42700
X0.15700 Y-0.42700
X0.15700 Y-0.42800
X0.15800 Y-0.42800
X0.15800 Y-0.42900
X0.15900 Y-0.42900
X0.15900 Y-0.43000
X0.16000 Y-0.43000
X0.16000 Y-0.43100
X0.16100 Y-0.43100
X0.16100 Y-0.43200
X0.16200 Y-0.43200
X0.16200 Y-0.43300
X0.16300 Y-0.43300
X0.16300 Y-0.43400
X0.16400 Y-0.43400
X0.16400 Y-0.43500
X0.16500 Y-0.43500
X0.16500 Y-0.43600
X0.16600 Y-0.43600
X0.16600 Y-0.43700
X0.16700 Y-0.43700
X0.16700 Y-0.43800
X0.16800 Y-0.43800
X0.16800 Y-0.43900
X0.16900 Y-0.43900
X0.16900 Y-0.44000
X0.17000 Y-0.44000
X0.17000 Y-0.44100
X0.17100 Y-0.44100
X0.17100 Y-0.44200
X0.17200 Y-0.44200
X0.17200 Y-0.44300
X0.17300 Y-0.44300
X0.17300 Y-0.44400
X0.17400 Y-0.44400
X0.17400 Y-0.44500
X0.17500 Y-0.44500
X0.17500 Y-0.44600
X0.17600 Y-0.44600
X0.17600 Y-0.44700
X0.17700 Y-0.44700
X0.17700 Y-0.44800
X0.17800 Y-0.44800
X0.17800 Y-0.44900
X0.17900 Y-0.44900
X0.17900 Y-0.45000
X0.18000 Y-0.45000
X0.18000 Y-0.45100
X0.18100 Y-0.45100
X0.18100 Y-0.45200
X0.18200 Y-0.45200
X0.18200 Y-0.45300
X0.18300 Y-0.45300
X0.18300 Y-0.45400
X0.18400 Y-0.45400
X0.18400 Y-0.45500
X0.18500 Y-0.45500
X0.18500 Y-0.45600
X0.18600 Y-0.45600
X0.18600 Y-0.45700
X0.18700 Y-0.45700
X0.18700 Y-0.45800
X0.18800 Y-0.45800
X0.18800 Y-0.45900
X0.18900 Y-0.45900
X0.18900 Y-0.46000
X0.19000 Y-0.46000
X0.19000 Y-0.46100
X0.19100 Y-0.46100
X0.19100 Y-0.46200
X0.19200 Y-0.46200
X0.19200 Y-0.46300
X0.19300 Y-0.46300
X0.19300 Y-0.46400
X0.19400 Y-0.46400
X0.19400 Y-0.46500
X0.19500 Y-0.46500
X0.19500 Y-0.46600
X0.19600 Y-0.46600
X0.19600 Y-0.46700
X0.19700 Y-0.46700
X0.19700 Y-0.46800
X0.19800 Y-0.46800
X0.19800 Y-0.46900
X0.19900 Y-0.46900
X0.19900 Y-0.47000
X0.20000 Y-0.47000
X0.20000 Y-0.47100
X0.20100 Y-0.47100
X0.20100 Y-0.47200
X0.20200 Y-0.47200
X0.20200 Y-0.47300
X0.20300 Y-0.47300
X0.20300 Y-0.47400
X0.20400 Y-0.47400
X0.20400 Y-0.47500
X0.20500 Y-0.47500
X0.20500 Y-0.47600
X0.20600 Y-0.47600
X0.20600 Y-0.47700
X0.20700 Y-0.47700
X0.20700 Y-0.47800
X0.20800 Y-0.47800
X0.20800 Y-0.47900
X0.20900 Y-0.47900
X0.20900 Y-0.48000
X0.21000 Y-0.48000
X0.21000 Y-0.48100
X0.21100 Y-0.48100
X0.21100 Y-0.48200
X0.21200 Y-0.48200
X0.21200 Y-0.48300
X0.21300 Y-0.48300
X0.21300 Y-0.48400
X0.21400 Y-0.48400
X0.21400 Y-0.48500
X0.21500 Y-0.48500
X0.21500 Y-0.48600
X0.21600 Y-0.48600
X0.21600 Y-0.48700
X0.21700 Y-0.48700
X0.21700 Y-0.48800
X0.21800 Y-0.48800
X0.21800 Y-0.48900
X0.21900 Y-0.48900
X0.21900 Y-0.49000
X0.22000 Y-0.49000
X0.22000 Y-0.49100
X0.22100 Y-0.49100
X0.22100 Y-0.49200
X0.22200 Y-0.49200
X0.22200 Y-0.49300
X0.22300 Y-0.49300
X0.22300 Y-0.49400
X0.22400 Y-0.49400
X0.22400 Y-0.49500
X0.22500 Y-0.49500
X0.22500 Y-0.49600
X0.22600 Y-0.49600
X0.22600 Y-0.49700
X0.22700 Y-0.49700
X0.22700 Y-0.49800
X0.60300 Y-0.49800
X0.60300 Y-0.49700
X0.60400 Y-0.49700
X0.60400 Y-0.49600
X0.60500 Y-0.49600
X0.60500 Y-0.49500
X0.60600 Y-0.49500
X0.60600 Y-0.49400
X0.60700 Y-0.49400
X0.60700 Y-0.49300
X0.60800 Y-0.49300
X0.60800 Y-0.49200
X0.60900 Y-0.49200
X0.60900 Y-0.49100
X0.61000 Y-0.49100
X0.61000 Y-0.49000
X0.61100 Y-0.49000
X0.61100 Y-0.48900
X0.61200 Y-0.48900
X0.61200 Y-0.48800
X0.61300 Y-0.48800
X0.61300 Y-0.48700
X0.61400 Y-0.48700
X0.61400 Y-0.48600
X0.61500 Y-0.48600
X0.61500 Y-0.48500
X0.61600 Y-0.48500
X0.61600 Y-0.48400
X0.61700 Y-0.48400
X0.61700 Y-0.48300
X0.61800 Y-0.48300
X0.61800 Y-0.48200
X0.61900 Y-0.48200
X0.61900 Y-0.48100
X0.62000 Y-0.48100
X0.62000 Y-0.48000
X0.62100 Y-0.48000
X0.62100 Y-0.47900
X0.62300 Y-0.47900
X0.62300 Y-0.47800
X0.64600 Y-0.47800
X0.64600 Y-0.47600
X0.64700 Y-0.47600
X0.64700 Y-0.47200
X0.64800 Y-0.47200
X0.64800 Y-0.47000
X0.64900 Y-0.47000
X0.64900 Y-0.46800
X0.65000 Y-0.46800
X0.65000 Y-0.46700
X0.65100 Y-0.46700
X0.65100 Y-0.46500
X0.65200 Y-0.46500
X0.65200 Y-0.46300
X0.65300 Y-0.46300
X0.65300 Y-0.46200
X0.65400 Y-0.46200
X0.65400 Y-0.46100
X0.65500 Y-0.46100
X0.65500 Y-0.46000
X0.65600 Y-0.46000
X0.65600 Y-0.45900
X0.65800 Y-0.45900
X0.65800 Y-0.45800
X0.65900 Y-0.45800
X0.65900 Y-0.45700
X0.66100 Y-0.45700
X0.66100 Y-0.45600
X0.66200 Y-0.45600
X0.66200 Y-0.45500
X0.66300 Y-0.45500
X0.66300 Y-0.45400
X0.66500 Y-0.45400
X0.66500 Y-0.45300
X0.66900 Y-0.45300
X0.66900 Y-0.45200
X0.67400 Y-0.45200
X0.67400 Y-0.45100
X0.72500 Y-0.45100
X0.72500 Y-0.45200
X0.73000 Y-0.45200
X0.73000 Y-0.45300
X0.73400 Y-0.45300
X0.73400 Y-0.45400
X0.73600 Y-0.45400
X0.73600 Y-0.45500
X0.73700 Y-0.45500
X0.73700 Y-0.45600
X0.73800 Y-0.45600
X0.73800 Y-0.45700
X0.74000 Y-0.45700
X0.74000 Y-0.45800
X0.74100 Y-0.45800
X0.74100 Y-0.45900
X0.74300 Y-0.45900
X0.74300 Y-0.46000
X0.74400 Y-0.46000
X0.74400 Y-0.46100
X0.74500 Y-0.46100
X0.74500 Y-0.46200
X0.74600 Y-0.46200
X0.74600 Y-0.46300
X0.74700 Y-0.46300
X0.74700 Y-0.46500
X0.74800 Y-0.46500
X0.74800 Y-0.46700
X0.74900 Y-0.46700
X0.74900 Y-0.46800
X0.75000 Y-0.46800
X0.75000 Y-0.47000
X0.75100 Y-0.47000
X0.75100 Y-0.47200
X0.75200 Y-0.47200
X0.75200 Y-0.47600
X0.75300 Y-0.47600
X0.75300 Y-0.48200
X0.75400 Y-0.48200
X0.75400 Y-0.51700
X0.75300 Y-0.51700
X0.75300 Y-0.52300
X0.75200 Y-0.52300
X0.75200 Y-0.52700
X0.75100 Y-0.52700
X0.75100 Y-0.52900
X0.75000 Y-0.52900
X0.75000 Y-0.53100
X0.74900 Y-0.53100
X0.74900 Y-0.53200
X0.74800 Y-0.53200
X0.74800 Y-0.53400
X0.74700 Y-0.53400
X0.74700 Y-0.53600
X0.74600 Y-0.53600
X0.74600 Y-0.53700
X0.74500 Y-0.53700
X0.74500 Y-0.53800
X0.74400 Y-0.53800
X0.74400 Y-0.53900
X0.74300 Y-0.53900
X0.74300 Y-0.54000
X0.74100 Y-0.54000
X0.74100 Y-0.54100
X0.74000 Y-0.54100
X0.74000 Y-0.54200
X0.73800 Y-0.54200
X0.73800 Y-0.54300
X0.73700 Y-0.54300
X0.73700 Y-0.54400
X0.73600 Y-0.54400
X0.73600 Y-0.54500
X0.73400 Y-0.54500
X0.73400 Y-0.54600
X0.73000 Y-0.54600
X0.73000 Y-0.54700
X0.72500 Y-0.54700
X0.72500 Y-0.54800
X0.67400 Y-0.54800
X0.67400 Y-0.54700
X0.66900 Y-0.54700
X0.66900 Y-0.54600
X0.66500 Y-0.54600
X0.66500 Y-0.54500
X0.66300 Y-0.54500
X0.66300 Y-0.54400
X0.66200 Y-0.54400
X0.66200 Y-0.54300
X0.66100 Y-0.54300
X0.66100 Y-0.54200
X0.65900 Y-0.54200
X0.65900 Y-0.54100
X0.65800 Y-0.54100
X0.65800 Y-0.54000
X0.65600 Y-0.54000
X0.65600 Y-0.53900
X0.65500 Y-0.53900
X0.65500 Y-0.53800
X0.65400 Y-0.53800
X0.65400 Y-0.53700
X0.65300 Y-0.53700
X0.65300 Y-0.53600
X0.65200 Y-0.53600
X0.65200 Y-0.53400
X0.65100 Y-0.53400
X0.65100 Y-0.53200
X0.65000 Y-0.53200
X0.65000 Y-0.53100
X0.64900 Y-0.53100
X0.64900 Y-0.53100
X0.64800 Y-0.53100
X0.64800 Y-0.53200
X0.64700 Y-0.53200
X0.64700 Y-0.53300
X0.64600 Y-0.53300
X0.64600 Y-0.53400
X0.64500 Y-0.53400
X0.64500 Y-0.53500
X0.64400 Y-0.53500
X0.64400 Y-0.53600
X0.64300 Y-0.53600
X0.64300 Y-0.53700
X0.64200 Y-0.53700
X0.64200 Y-0.53800
X0.64100 Y-0.53800
X0.64100 Y-0.53900
X0.64000 Y-0.53900
X0.64000 Y-0.54000
X0.63900 Y-0.54000
X0.63900 Y-0.54100
X0.63700 Y-0.54100
X0.63700 Y-0.54200
X0.19300 Y-0.54200
X0.19300 Y-0.54100
X0.19100 Y-0.54100
X0.19100 Y-0.54000
X0.19000 Y-0.54000
X0.19000 Y-0.53900
X0.18900 Y-0.53900
X0.18900 Y-0.53800
X0.18800 Y-0.53800
X0.18800 Y-0.53700
X0.18700 Y-0.53700
X0.18700 Y-0.53600
X0.18600 Y-0.53600
X0.18600 Y-0.53500
X0.18500 Y-0.53500
X0.18500 Y-0.53400
X0.18400 Y-0.53400
X0.18400 Y-0.53300
X0.18300 Y-0.53300
X0.18300 Y-0.53200
X0.18200 Y-0.53200
X0.18200 Y-0.53100
X0.18100 Y-0.53100
X0.18100 Y-0.53000
X0.18000 Y-0.53000
X0.18000 Y-0.52900
X0.17900 Y-0.52900
X0.17900 Y-0.52800
X0.17800 Y-0.52800
X0.17800 Y-0.52700
X0.17700 Y-0.52700
X0.17700 Y-0.52600
X0.17600 Y-0.52600
X0.17600 Y-0.52500
X0.17500 Y-0.52500
X0.17500 Y-0.52400
X0.17400 Y-0.52400
X0.17400 Y-0.52300
X0.17300 Y-0.52300
X0.17300 Y-0.52200
X0.17200 Y-0.52200
X0.17200 Y-0.52100
X0.17100 Y-0.52100
X0.17100 Y-0.52000
X0.17000 Y-0.52000
X0.17000 Y-0.51900
X0.16900 Y-0.51900
X0.16900 Y-0.51800
X0.16800 Y-0.51800
X0.16800 Y-0.51700
X0.16700 Y-0.51700
X0.16700 Y-0.51600
X0.16600 Y-0.51600
X0.16600 Y-0.51500
X0.16500 Y-0.51500
X0.16500 Y-0.51400
X0.16400 Y-0.51400
X0.16400 Y-0.51300
X0.16300 Y-0.51300
X0.16300 Y-0.51200
X0.16200 Y-0.51200
X0.16200 Y-0.51100
X0.16100 Y-0.51100
X0.16100 Y-0.51000
X0.16000 Y-0.51000
X0.16000 Y-0.50900
X0.15900 Y-0.50900
X0.15900 Y-0.50800
X0.15800 Y-0.50800
X0.15800 Y-0.50700
X0.15700 Y-0.50700
X0.15700 Y-0.50600
X0.15600 Y-0.50600
X0.15600 Y-0.50500
X0.15500 Y-0.50500
X0.15500 Y-0.50400
X0.15400 Y-0.50400
X0.15400 Y-0.50300
X0.15300 Y-0.50300
X0.15300 Y-0.50200
X0.15200 Y-0.50200
X0.15200 Y-0.50100
X0.15100 Y-0.50100
X0.15100 Y-0.50000
X0.15000 Y-0.50000
X0.15000 Y-0.49900
X0.14900 Y-0.49900
X0.14900 Y-0.49800
X0.14800 Y-0.49800
X0.14800 Y-0.49700
X0.14700 Y-0.49700
X0.14700 Y-0.49600
X0.14600 Y-0.49600
X0.14600 Y-0.49500
X0.14500 Y-0.49500
X0.14500 Y-0.49400
X0.14400 Y-0.49400
X0.14400 Y-0.49300
X0.14300 Y-0.49300
X0.14300 Y-0.49200
X0.14200 Y-0.49200
X0.14200 Y-0.49100
X0.14100 Y-0.49100
X0.14100 Y-0.49000
X0.14000 Y-0.49000
X0.14000 Y-0.48900
X0.13900 Y-0.48900
X0.13900 Y-0.48800
X0.13800 Y-0.48800
X0.13800 Y-0.48700
X0.13700 Y-0.48700
X0.13700 Y-0.48600
X0.13600 Y-0.48600
X0.13600 Y-0.48500
X0.13500 Y-0.48500
X0.13500 Y-0.48400
X0.13400 Y-0.48400
X0.13400 Y-0.48300
X0.13300 Y-0.48300
X0.13300 Y-0.48200
X0.13200 Y-0.48200
X0.13200 Y-0.48100
X0.13100 Y-0.48100
X0.13100 Y-0.48000
X0.13000 Y-0.48000
X0.13000 Y-0.47900
X0.12900 Y-0.47900
X0.12900 Y-0.47800
X0.12800 Y-0.47800
X0.12800 Y-0.47700
X0.12700 Y-0.47700
X0.12700 Y-0.47600
X0.12600 Y-0.47600
X0.12600 Y-0.47500
X0.12500 Y-0.47500
X0.12500 Y-0.47400
X0.12400 Y-0.47400
X0.12400 Y-0.47300
X0.12300 Y-0.47300
X0.12300 Y-0.47200
X0.12200 Y-0.47200
X0.12200 Y-0.47100
X0.12100 Y-0.47100
X0.12100 Y-0.47000
X0.12000 Y-0.47000
X0.12000 Y-0.46900
X0.11900 Y-0.46900
X0.11900 Y-0.46800
X0.11800 Y-0.46800
X0.11800 Y-0.46700
X0.11700 Y-0.46700
X0.11700 Y-0.46600
X0.11600 Y-0.46600
X0.11600 Y-0.46500
X0.11500 Y-0.46500
X0.11500 Y-0.46400
X0.11400 Y-0.46400
X0.11400 Y-0.46300
X0.11300 Y-0.46300
X0.11300 Y-0.46200
X0.11200 Y-0.46200
X0.11200 Y-0.46100
X0.11100 Y-0.46100
X0.11100 Y-0.46000
X0.11000 Y-0.46000
X0.11000 Y-0.45900
X0.10900 Y-0.45900
X0.10900 Y-0.45700
X0.10800 Y-0.45700
X0.10800 Y-0.35300
X0.10900 Y-0.35300
X0.10900 Y-0.35100
X0.11000 Y-0.35100
X0.11000 Y-0.35000
X0.11100 Y-0.35000
X0.11100 Y-0.34900
X0.11200 Y-0.34900
X0.11200 Y-0.34800
X0.11300 Y-0.34800
X0.11300 Y-0.34700
X0.11400 Y-0.34700
X0.11400 Y-0.34600
X0.11500 Y-0.34600
X0.11500 Y-0.34500
X0.11600 Y-0.34500
X0.11600 Y-0.34400
X0.11700 Y-0.34400
X0.11700 Y-0.34300
X0.11800 Y-0.34300
X0.11800 Y-0.34200
X0.11900 Y-0.34200
X0.11900 Y-0.34100
X0.12000 Y-0.34100
X0.12000 Y-0.34000
X0.12100 Y-0.34000
X0.12100 Y-0.33900
X0.12200 Y-0.33900
X0.12200 Y-0.33800
X0.12300 Y-0.33800
X0.12300 Y-0.33700
X0.12400 Y-0.33700
X0.12400 Y-0.33600
X0.12500 Y-0.33600
X0.12500 Y-0.33500
X0.12600 Y-0.33500
X0.12600 Y-0.33400
X0.12700 Y-0.33400
X0.12700 Y-0.33300
X0.12800 Y-0.33300
X0.12800 Y-0.33200
X0.12900 Y-0.33200
X0.12900 Y-0.33100
X0.13000 Y-0.33100
X0.13000 Y-0.33000
X0.13100 Y-0.33000
X0.13100 Y-0.32900
X0.13300 Y-0.32900
X0.13300 Y-0.32800
X0.16000 Y-0.32800
X0.16000 Y-0.32500
X0.29900 Y-0.32500
X0.29900 Y-0.33600
G04 P0 ( dwell for no time -- G64 should not smooth over this point )
G00 Z0.02000 ( retract )

G00 X0.74800 Y-0.36600 ( rapid move to begin. )
G01 Z-0.00300 F4.75000 ( plunge. )
G04 P0 ( dwell for no time -- G64 should not smooth over this point )
X0.74800 Y-0.36600
X0.74800 Y-0.36700
X0.74900 Y-0.36700
X0.74900 Y-0.36800
X0.75000 Y-0.36800
X0.75000 Y-0.37000
X0.75100 Y-0.37000
X0.75100 Y-0.37200
X0.75200 Y-0.37200
X0.75200 Y-0.37600
X0.75300 Y-0.37600
X0.75300 Y-0.38200
X0.75400 Y-0.38200
X0.75400 Y-0.41700
X0.75300 Y-0.41700
X0.75300 Y-0.42300
X0.75200 Y-0.42300
X0.75200 Y-0.42700
X0.75100 Y-0.42700
X0.75100 Y-0.42900
X0.75000 Y-0.42900
X0.75000 Y-0.43100
X0.74900 Y-0.43100
X0.74900 Y-0.43200
X0.74800 Y-0.43200
X0.74800 Y-0.43400
X0.74700 Y-0.43400
X0.74700 Y-0.43600
X0.74600 Y-0.43600
X0.74600 Y-0.43700
X0.74500 Y-0.43700
X0.74500 Y-0.43800
X0.74400 Y-0.43800
X0.74400 Y-0.43900
X0.74300 Y-0.43900
X0.74300 Y-0.44000
X0.74100 Y-0.44000
X0.74100 Y-0.44100
X0.74000 Y-0.44100
X0.74000 Y-0.44200
X0.73800 Y-0.44200
X0.73800 Y-0.44300
X0.73700 Y-0.44300
X0.73700 Y-0.44400
X0.73600 Y-0.44400
X0.73600 Y-0.44500
X0.73400 Y-0.44500
X0.73400 Y-0.44600
X0.73000 Y-0.44600
X0.73000 Y-0.44700
X0.72500 Y-0.44700
X0.72500 Y-0.44800
X0.67400 Y-0.44800
X0.67400 Y-0.44700
X0.66900 Y-0.44700
X0.66900 Y-0.44600
X0.66500 Y-0.44600
X0.66500 Y-0.44500
X0.66300 Y-0.44500
X0.66300 Y-0.44400
X0.66200 Y-0.44400
X0.66200 Y-0.44300
X0.66100 Y-0.44300
X0.66100 Y-0.44200
X0.65900 Y-0.44200
X0.65900 Y-0.44100
X0.65800 Y-0.44100
X0.65800 Y-0.44000
X0.65600 Y-0.44000
X0.65600 Y-0.43900
X0.65500 Y-0.43900
X0.65500 Y-0.43800
X0.65400 Y-0.43800
X0.65400 Y-0.43700
X0.65300 Y-0.43700
X0.65300 Y-0.43600
X0.65200 Y-0.43600
X0.65200 Y-0.43400
X0.65100 Y-0.43400
X0.65100 Y-0.43200
X0.65000 Y-0.43200
X0.65000 Y-0.43100
X0.64900 Y-0.43100
X0.64900 Y-0.42900
X0.64800 Y-0.42900
X0.64800 Y-0.42700
X0.64700 Y-0.42700
X0.64700 Y-0.42300
X0.64600 Y-0.42300
X0.64600 Y-0.42400
X0.64500 Y-0.42400
X0.64500 Y-0.42500
X0.64400 Y-0.42500
X0.64400 Y-0.42600
X0.64300 Y-0.42600
X0.64300 Y-0.42700
X0.64200 Y-0.42700
X0.64200 Y-0.42800
X0.64100 Y-0.42800
X0.64100 Y-0.42900
X0.64000 Y-0.42900
X0.64000 Y-0.43000
X0.63900 Y-0.43000
X0.63900 Y-0.43100
X0.63800 Y-0.43100
X0.63800 Y-0.43200
X0.63700 Y-0.43200
X0.63700 Y-0.43300
X0.63600 Y-0.43300
X0.63600 Y-0.43400
X0.63500 Y-0.43400
X0.63500 Y-0.43500
X0.63400 Y-0.43500
X0.63400 Y-0.43600
X0.63300 Y-0.43600
X0.63300 Y-0.43700
X0.63200 Y-0.43700
X0.63200 Y-0.43800
X0.63100 Y-0.43800
X0.63100 Y-0.43900
X0.63000 Y-0.43900
X0.63000 Y-0.44000
X0.62900 Y-0.44000
X0.62900 Y-0.44100
X0.62800 Y-0.44100
X0.62800 Y-0.44200
X0.62700 Y-0.44200
X0.62700 Y-0.44300
X0.62600 Y-0.44300
X0.62600 Y-0.44400
X0.62500 Y-0.44400
X0.62500 Y-0.44500
X0.62400 Y-0.44500
X0.62400 Y-0.44600
X0.62300 Y-0.44600
X0.62300 Y-0.44700
X0.62200 Y-0.44700
X0.62200 Y-0.44800
X0.62100 Y-0.44800
X0.62100 Y-0.44900
X0.62000 Y-0.44900
X0.62000 Y-0.45000
X0.61900 Y-0.45000
X0.61900 Y-0.45100
X0.61800 Y-0.45100
X0.61800 Y-0.45200
X0.61700 Y-0.45200
X0.61700 Y-0.45300
X0.61600 Y-0.45300
X0.61600 Y-0.45400
X0.61500 Y-0.45400
X0.61500 Y-0.45500
X0.61400 Y-0.45500
X0.61400 Y-0.45600
X0.61300 Y-0.45600
X0.61300 Y-0.45700
X0.61200 Y-0.45700
X0.61200 Y-0.45800
X0.61100 Y-0.45800
X0.61100 Y-0.45900
X0.61000 Y-0.45900
X0.61000 Y-0.46000
X0.60900 Y-0.46000
X0.60900 Y-0.46100
X0.60800 Y-0.46100
X0.60800 Y-0.46200
X0.60700 Y-0.46200
X0.60700 Y-0.46300
X0.60600 Y-0.46300
X0.60600 Y-0.46400
X0.60500 Y-0.46400
X0.60500 Y-0.46500
X0.60400 Y-0.46500
X0.60400 Y-0.46600
X0.60300 Y-0.46600
X0.60300 Y-0.46700
X0.60200 Y-0.46700
X0.60200 Y-0.46800
X0.60100 Y-0.46800
X0.60100 Y-0.46900
X0.60000 Y-0.46900
X0.60000 Y-0.47000
X0.59900 Y-0.47000
X0.59900 Y-0.47100
X0.59800 Y-0.47100
X0.59800 Y-0.47200
X0.59700 Y-0.47200
X0.59700 Y-0.47300
X0.59600 Y-0.47300
X0.59600 Y-0.47400
X0.59500 Y-0.47400
X0.59500 Y-0.47500
X0.59400 Y-0.47500
X0.59400 Y-0.47600
X0.59300 Y-0.47600
X0.59300 Y-0.47700
X0.59200 Y-0.47700
X0.59200 Y-0.47800
X0.59100 Y-0.47800
X0.59100 Y-0.47900
X0.59000 Y-0.47900
X0.59000 Y-0.48000
X0.58900 Y-0.48000
X0.58900 Y-0.48100
X0.58800 Y-0.48100
X0.58800 Y-0.48200
X0.58700 Y-0.48200
X0.58700 Y-0.48300
X0.58600 Y-0.48300
X0.58600 Y-0.48400
X0.58500 Y-0.48400
X0.58500 Y-0.48500
X0.58400 Y-0.48500
X0.58400 Y-0.48600
X0.58300 Y-0.48600
X0.58300 Y-0.48700
X0.58200 Y-0.48700
X0.58200 Y-0.48800
X0.58100 Y-0.48800
X0.58100 Y-0.48900
X0.58000 Y-0.48900
X0.58000 Y-0.49000
X0.57900 Y-0.49000
X0.57900 Y-0.49100
X0.57700 Y-0.49100
X0.57700 Y-0.49200
X0.25300 Y-0.49200
X0.25300 Y-0.49100
X0.25100 Y-0.49100
X0.25100 Y-0.49000
X0.25000 Y-0.49000
X0.25000 Y-0.48900
X0.24900 Y-0.48900
X0.24900 Y-0.48800
X0.24800 Y-0.48800
X0.24800 Y-0.48700
X0.24700 Y-0.48700
X0.24700 Y-0.48600
X0.24600 Y-0.48600
X0.24600 Y-0.48500
X0.24500 Y-0.48500
X0.24500 Y-0.48400
X0.24400 Y-0.48400
X0.24400 Y-0.48300
X0.24300 Y-0.48300
X0.24300 Y-0.48200
X0.24200 Y-0.48200
X0.24200 Y-0.48100
X0.24100 Y-0.48100
X0.24100 Y-0.48000
X0.24000 Y-0.48000
X0.24000 Y-0.47900
X0.23900 Y-0.47900
X0.23900 Y-0.47800
X0.23800 Y-0.47800
X0.23800 Y-0.47700
X0.23700 Y-0.47700
X0.23700 Y-0.47600
X0.23600 Y-0.47600
X0.23600 Y-0.47500
X0.23500 Y-0.47500
X0.23500 Y-0.47400
X0.23400 Y-0.47400
X0.23400 Y-0.47300
X0.23300 Y-0.47300
X0.23300 Y-0.47200
X0.23200 Y-0.47200
X0.23200 Y-0.47100
X0.23100 Y-0.47100
X0.23100 Y-0.47000
X0.23000 Y-0.47000
X0.23000 Y-0.46900
X0.22900 Y-0.46900
X0.22900 Y-0.46800
X0.22800 Y-0.46800
X0.22800 Y-0.46700
X0.22700 Y-0.46700
X0.22700 Y-0.46600
X0.22600 Y-0.46600
X0.22600 Y-0.46500
X0.22500 Y-0.46500
X0.22500 Y-0.46400
X0.22400 Y-0.46400
X0.22400 Y-0.46300
X0.22300 Y-0.46300
X0.22300 Y-0.46200
X0.22200 Y-0.46200
X0.22200 Y-0.46100
X0.22100 Y-0.46100
X0.22100 Y-0.46000
X0.22000 Y-0.46000
X0.22000 Y-0.45900
X0.21900 Y-0.45900
X0.21900 Y-0.45800
X0.21800 Y-0.45800
X0.21800 Y-0.45700
X0.21700 Y-0.45700
X0.21700 Y-0.45600
X0.21600 Y-0.45600
X0.21600 Y-0.45500
X0.21500 Y-0.45500
X0.21500 Y-0.45400
X0.21400 Y-0.45400
X0.21400 Y-0.45300
X0.21300 Y-0.45300
X0.21300 Y-0.45200
X0.21200 Y-0.45200
X0.21200 Y-0.45100
X0.21100 Y-0.45100
X0.21100 Y-0.45000
X0.21000 Y-0.45000
X0.21000 Y-0.44900
X0.20900 Y-0.44900
X0.20900 Y-0.44700
X0.20800 Y-0.44700
X0.20800 Y-0.42800
X0.16000 Y-0.42800
X0.16000 Y-0.37900
X0.16100 Y-0.37900
X0.16100 Y-0.37600
X0.16200 Y-0.37600
X0.16200 Y-0.37500
X0.29900 Y-0.37500
X0.29900 Y-0.42800
X0.26800 Y-0.42800
X0.26800 Y-0.42900
X0.26900 Y-0.42900
X0.26900 Y-0.43000
X0.27000 Y-0.43000
