( pcb2gcode 1.1.4 )

( This file uses a mill head of 0.03125 to drill the 1bit sizes. )

T2 M6


S2500  ( RPM spindle speed.           )

F4.72400
#50=-0.06700 ; zwork
#51=0.04000 ; zsafe
#52=0.02000 ; stepsize
G0 X0.70437 Y-0.10000
G1 Z[#50+3*#52]
G2 I-0.00437 J0
G1 Z[#50+2*#52]
G2 I-0.00437 J0
G1 Z[#50+1*#52]
G2 I-0.00437 J0
G1 Z[#50+0*#52]
G2 I-0.00437 J0
G0 Z0.04000

G0 X0.70437 Y-0.20000
G1 Z[#50+3*#52]
G2 I-0.00437 J0
G1 Z[#50+2*#52]
G2 I-0.00437 J0
G1 Z[#50+1*#52]
G2 I-0.00437 J0
G1 Z[#50+0*#52]
G2 I-0.00437 J0
G0 Z0.04000

G0 X0.70437 Y-0.30000
G1 Z[#50+3*#52]
G2 I-0.00437 J0
G1 Z[#50+2*#52]
G2 I-0.00437 J0
G1 Z[#50+1*#52]
G2 I-0.00437 J0
G1 Z[#50+0*#52]
G2 I-0.00437 J0
G0 Z0.04000

G0 X0.70437 Y-0.40000
G1 Z[#50+3*#52]
G2 I-0.00437 J0
G1 Z[#50+2*#52]
G2 I-0.00437 J0
G1 Z[#50+1*#52]
G2 I-0.00437 J0
G1 Z[#50+0*#52]
G2 I-0.00437 J0
G0 Z0.04000

G0 X0.70437 Y-0.50000
G1 Z[#50+3*#52]
G2 I-0.00437 J0
G1 Z[#50+2*#52]
G2 I-0.00437 J0
G1 Z[#50+1*#52]
G2 I-0.00437 J0
G1 Z[#50+0*#52]
G2 I-0.00437 J0
G0 Z0.04000

G00 Z0.50000 ( All done -- retract )

M9 ( Coolant off. )
M2 ( Program end. )

